; generated by PrusaSlicer 2.3.0+win64 on 2021-05-25 at 17:06:44 UTC

; 

; external perimeters extrusion width = 0.45mm
; perimeters extrusion width = 0.45mm
; infill extrusion width = 0.45mm
; solid infill extrusion width = 0.45mm
; top infill extrusion width = 0.40mm
; support material extrusion width = 0.35mm
; first layer extrusion width = 0.42mm

M73 P0 R59
M73 Q0 S59
M201 X1000 Y1000 Z200 E5000 ; sets maximum accelerations, mm/sec^2
M203 X200 Y200 Z12 E120 ; sets maximum feedrates, mm/sec
M204 P1250 R1250 T1250 ; sets acceleration (P, T) and retract acceleration (R), mm/sec^2
M205 X8.00 Y8.00 Z0.40 E4.50 ; sets the jerk limits, mm/sec
M205 S0 T0 ; sets the minimum extruding and travel feed rate, mm/sec
M107
;TYPE:Custom
M862.3 P "MK3S" ; printer model check
M862.1 P0.4 ; nozzle diameter check
M115 U3.9.3 ; tell printer latest fw version
G90 ; use absolute coordinates
M83 ; extruder relative mode
M104 S215 ; set extruder temp
M140 S60 ; set bed temp
M190 S60 ; wait for bed temp
M109 S215 ; wait for extruder temp
G28 W ; home all without mesh bed level
G80 ; mesh bed leveling
G1 Y-3.0 F1000.0 ; go outside print area
G92 E0.0
G1 X60.0 E9.0 F1000.0 ; intro line
G1 X100.0 E12.5 F1000.0 ; intro line
G92 E0.0
M221 S95

; Don't change E values below. Excessive value can damage the printer.

M907 E538 ; set extruder motor current
G21 ; set units to millimeters
G90 ; use absolute coordinates
M83 ; use relative distances for extrusion
M900 K0.05 ; Filament gcode LA 1.5
M900 K30 ; Filament gcode LA 1.0
;LAYER_CHANGE
;Z:0.2
;HEIGHT:0.2
;BEFORE_LAYER_CHANGE
G92 E0.0
;0.2


G1 E-0.80000 F2100.000
G1 Z0.400 F10800.000
;AFTER_LAYER_CHANGE
;0.2
G1 X109.664 Y84.558
G1 Z0.200
G1 E0.80000 F2100.000
M204 S1000
;TYPE:Skirt
;WIDTH:0.42
G1 F1200.000
G1 X110.014 Y83.692 E0.02931
G1 X117.156 Y72.860 E0.40680
G1 X118.266 Y71.473 E0.05571
G1 X119.646 Y70.300 E0.05678
G1 X121.271 Y69.395 E0.05832
G1 X123.002 Y68.838 E0.05701
G1 X124.121 Y68.663 E0.03550
G1 X125.204 Y68.624 E0.03398
G1 X127.057 Y68.850 E0.05853
G1 X128.777 Y69.416 E0.05678
G1 X130.362 Y70.306 E0.05702
G1 X131.744 Y71.483 E0.05690
G1 X132.852 Y72.872 E0.05571
G1 X139.993 Y83.703 E0.40676
G1 X140.256 Y84.251 E0.01906
G1 X140.377 Y84.992 E0.02355
G1 X140.336 Y114.404 E0.92221
G1 X140.075 Y115.125 E0.02405
G1 X126.071 Y140.165 E0.89956
G1 X125.623 Y140.735 E0.02272
G1 X124.920 Y141.190 E0.02626
G1 X124.103 Y141.373 E0.02626
G1 X111.561 Y141.335 E0.39326
G1 X107.714 Y140.230 E0.12550
G1 X107.192 Y139.999 E0.01787
G1 X106.725 Y139.635 E0.01858
G1 X106.362 Y139.166 E0.01858
G1 X106.127 Y138.623 E0.01858
G1 X106.033 Y138.037 E0.01858
G1 X106.037 Y120.162 E0.56046
G1 X109.658 Y84.618 E1.12023
; printing object CableGuide.stl id:0 copy 0
;WIPE_START
G1 F8640.000
G1 X110.014 Y83.692 E-0.22916
G1 X111.280 Y81.773 E-0.53084
;WIPE_END
G1 E-0.04000 F2100.000
G1 Z0.600 F10800.000
G1 X111.425 Y138.127
G1 Z0.200
G1 E0.80000 F2100.000
;TYPE:Support material
G1 F1200.000
G1 X111.425 Y120.492 E0.55293
G1 X110.671 Y120.492 E0.02365
G1 X110.671 Y137.957 E0.54761
G1 X109.917 Y137.957 E0.02365
G1 X109.917 Y120.492 E0.54761
G1 X109.163 Y120.492 E0.02365
G1 X109.163 Y137.957 E0.54761
G1 X108.408 Y137.957 E0.02365
G1 X108.409 Y120.322 E0.55293
;WIPE_START
G1 F8640.000
G1 X108.409 Y123.613 E-0.76000
;WIPE_END
G1 E-0.04000 F2100.000
G1 Z0.600 F10800.000
G1 X122.959 Y110.240
G1 Z0.200
G1 E0.80000 F2100.000
;TYPE:Perimeter
G1 F1200.000
G1 X122.809 Y109.950 E0.01022
G1 X122.700 Y109.643 E0.01022
G1 X122.633 Y109.324 E0.01022
G1 X122.613 Y109.022 E0.00950
G1 X122.633 Y108.676 E0.01085
G1 X122.700 Y108.354 E0.01032
G1 X122.809 Y108.047 E0.01022
G1 X122.959 Y107.757 E0.01022
G1 X123.147 Y107.491 E0.01022
G1 X123.369 Y107.253 E0.01022
G1 X123.622 Y107.047 E0.01022
G1 X123.901 Y106.877 E0.01022
G1 X124.200 Y106.748 E0.01022
G1 X124.514 Y106.660 E0.01022
G1 X124.837 Y106.615 E0.01022
G1 X125.163 Y106.615 E0.01022
G1 X125.486 Y106.660 E0.01022
G1 X125.778 Y106.741 E0.00950
G1 X126.096 Y106.876 E0.01085
G1 X126.378 Y107.047 E0.01032
G1 X126.631 Y107.253 E0.01022
G1 X126.837 Y107.474 E0.00950
G1 X127.040 Y107.755 E0.01085
G1 X127.191 Y108.047 E0.01032
G1 X127.300 Y108.354 E0.01022
G1 X127.367 Y108.673 E0.01022
G1 X127.389 Y108.999 E0.01022
G1 X127.367 Y109.324 E0.01022
G1 X127.300 Y109.643 E0.01022
G1 X127.191 Y109.950 E0.01022
G1 X127.041 Y110.240 E0.01022
G1 X126.853 Y110.506 E0.01022
G1 X126.631 Y110.744 E0.01022
G1 X126.378 Y110.950 E0.01022
G1 X126.099 Y111.120 E0.01022
G1 X125.800 Y111.250 E0.01022
G1 X125.486 Y111.338 E0.01022
G1 X125.163 Y111.382 E0.01022
G1 X124.837 Y111.382 E0.01022
G1 X124.514 Y111.338 E0.01022
G1 X124.200 Y111.250 E0.01022
G1 X123.901 Y111.120 E0.01022
G1 X123.622 Y110.950 E0.01022
G1 X123.369 Y110.744 E0.01022
G1 X123.147 Y110.506 E0.01022
G1 X122.993 Y110.289 E0.00834
G1 X123.302 Y110.071 F10800.000
;TYPE:External perimeter
G1 F1200.000
G1 X123.156 Y109.800 E0.00967
G1 X123.064 Y109.541 E0.00861
G1 X123.008 Y109.272 E0.00861
G1 X122.990 Y109.020 E0.00794
G1 X123.008 Y108.726 E0.00923
G1 X123.064 Y108.456 E0.00864
G1 X123.156 Y108.197 E0.00861
G1 X123.282 Y107.954 E0.00861
G1 X123.440 Y107.729 E0.00861
G1 X123.627 Y107.529 E0.00861
G1 X123.840 Y107.356 E0.00861
G1 X124.075 Y107.213 E0.00861
G1 X124.327 Y107.104 E0.00861
G1 X124.591 Y107.030 E0.00861
G1 X124.863 Y106.992 E0.00861
G1 X125.137 Y106.992 E0.00861
G1 X125.409 Y107.030 E0.00861
G1 X125.653 Y107.098 E0.00794
G1 X125.924 Y107.213 E0.00923
G1 X126.160 Y107.356 E0.00864
G1 X126.373 Y107.529 E0.00861
G1 X126.546 Y107.714 E0.00794
G1 X126.718 Y107.953 E0.00923
G1 X126.844 Y108.197 E0.00864
G1 X126.936 Y108.456 E0.00861
G1 X126.992 Y108.725 E0.00861
G1 X127.011 Y108.999 E0.00861
G1 X126.992 Y109.272 E0.00861
G1 X126.936 Y109.541 E0.00861
G1 X126.844 Y109.800 E0.00861
G1 X126.718 Y110.043 E0.00861
G1 X126.560 Y110.268 E0.00861
G1 X126.373 Y110.468 E0.00861
G1 X126.160 Y110.641 E0.00861
G1 X125.925 Y110.784 E0.00861
G1 X125.673 Y110.893 E0.00861
G1 X125.409 Y110.967 E0.00861
G1 X125.137 Y111.005 E0.00861
G1 X124.863 Y111.005 E0.00861
G1 X124.591 Y110.967 E0.00861
G1 X124.327 Y110.893 E0.00861
G1 X124.075 Y110.784 E0.00861
G1 X123.840 Y110.641 E0.00861
G1 X123.627 Y110.468 E0.00861
G1 X123.440 Y110.268 E0.00861
G1 X123.336 Y110.120 E0.00565
G1 X122.993 Y110.082 F10800.000
;WIPE_START
G1 F8640.000
G1 X123.156 Y109.800 E-0.08498
G1 X123.064 Y109.541 E-0.06338
G1 X123.008 Y109.272 E-0.06337
G1 X122.990 Y109.020 E-0.05850
G1 X123.008 Y108.726 E-0.06796
G1 X123.064 Y108.456 E-0.06362
G1 X123.156 Y108.197 E-0.06338
G1 X123.282 Y107.954 E-0.06337
G1 X123.440 Y107.729 E-0.06337
G1 X123.627 Y107.529 E-0.06337
G1 X123.840 Y107.356 E-0.06337
G1 X123.993 Y107.263 E-0.04132
;WIPE_END
G1 E-0.04000 F2100.000
G1 Z0.600 F10800.000
G1 X124.837 Y90.382
G1 Z0.200
G1 E0.80000 F2100.000
;TYPE:Perimeter
G1 F1200.000
G1 X124.514 Y90.338 E0.01022
G1 X124.200 Y90.250 E0.01022
G1 X123.901 Y90.120 E0.01022
G1 X123.622 Y89.950 E0.01022
G1 X123.369 Y89.744 E0.01022
G1 X123.147 Y89.506 E0.01022
G1 X122.959 Y89.240 E0.01022
G1 X122.809 Y88.950 E0.01022
G1 X122.700 Y88.643 E0.01022
G1 X122.633 Y88.324 E0.01022
G1 X122.613 Y88.022 E0.00950
G1 X122.633 Y87.676 E0.01085
G1 X122.700 Y87.354 E0.01032
G1 X122.809 Y87.047 E0.01022
G1 X122.959 Y86.757 E0.01022
G1 X123.147 Y86.491 E0.01022
G1 X123.369 Y86.253 E0.01022
G1 X123.622 Y86.047 E0.01022
G1 X123.901 Y85.877 E0.01022
G1 X124.200 Y85.748 E0.01022
G1 X124.514 Y85.660 E0.01022
G1 X124.837 Y85.615 E0.01022
G1 X125.163 Y85.615 E0.01022
G1 X125.486 Y85.660 E0.01022
G1 X125.800 Y85.748 E0.01022
G1 X126.099 Y85.877 E0.01022
G1 X126.378 Y86.047 E0.01022
G1 X126.631 Y86.253 E0.01022
G1 X126.853 Y86.491 E0.01022
G1 X127.041 Y86.757 E0.01022
G1 X127.191 Y87.047 E0.01022
G1 X127.300 Y87.354 E0.01022
G1 X127.367 Y87.673 E0.01022
G1 X127.389 Y87.999 E0.01022
G1 X127.367 Y88.324 E0.01022
G1 X127.300 Y88.643 E0.01022
G1 X127.191 Y88.950 E0.01022
G1 X127.041 Y89.240 E0.01022
G1 X126.853 Y89.506 E0.01022
G1 X126.631 Y89.744 E0.01022
G1 X126.378 Y89.950 E0.01022
G1 X126.099 Y90.120 E0.01022
G1 X125.800 Y90.250 E0.01022
G1 X125.486 Y90.338 E0.01022
G1 X125.163 Y90.382 E0.01022
G1 X124.897 Y90.382 E0.00834
G1 X124.897 Y90.005 F10800.000
;TYPE:External perimeter
G1 F1200.000
G1 X124.591 Y89.967 E0.00967
G1 X124.327 Y89.893 E0.00861
G1 X124.075 Y89.784 E0.00861
G1 X123.840 Y89.641 E0.00861
G1 X123.627 Y89.468 E0.00861
G1 X123.440 Y89.268 E0.00861
G1 X123.282 Y89.043 E0.00861
G1 X123.156 Y88.800 E0.00861
G1 X123.064 Y88.541 E0.00861
G1 X123.008 Y88.272 E0.00861
G1 X122.990 Y88.020 E0.00794
G1 X123.008 Y87.726 E0.00923
G1 X123.064 Y87.456 E0.00864
G1 X123.156 Y87.197 E0.00861
G1 X123.282 Y86.954 E0.00861
G1 X123.440 Y86.729 E0.00861
G1 X123.627 Y86.529 E0.00861
G1 X123.840 Y86.356 E0.00861
G1 X124.075 Y86.213 E0.00861
G1 X124.327 Y86.104 E0.00861
G1 X124.591 Y86.030 E0.00861
G1 X124.863 Y85.992 E0.00861
G1 X125.137 Y85.992 E0.00861
G1 X125.409 Y86.030 E0.00861
G1 X125.673 Y86.104 E0.00861
G1 X125.925 Y86.213 E0.00861
G1 X126.160 Y86.356 E0.00861
G1 X126.373 Y86.529 E0.00861
G1 X126.560 Y86.729 E0.00861
G1 X126.718 Y86.954 E0.00861
G1 X126.844 Y87.197 E0.00861
G1 X126.936 Y87.456 E0.00861
G1 X126.992 Y87.725 E0.00861
G1 X127.011 Y87.999 E0.00861
G1 X126.992 Y88.272 E0.00861
G1 X126.936 Y88.541 E0.00861
G1 X126.844 Y88.800 E0.00861
G1 X126.718 Y89.043 E0.00861
G1 X126.560 Y89.268 E0.00861
G1 X126.373 Y89.468 E0.00861
G1 X126.160 Y89.641 E0.00861
G1 X125.925 Y89.784 E0.00861
G1 X125.673 Y89.893 E0.00861
G1 X125.409 Y89.967 E0.00861
G1 X125.137 Y90.005 E0.00861
G1 X124.957 Y90.005 E0.00565
G1 X124.728 Y90.263 F10800.000
;WIPE_START
G1 F8640.000
G1 X124.591 Y89.967 E-0.08498
G1 X124.327 Y89.893 E-0.06337
G1 X124.075 Y89.784 E-0.06338
G1 X123.840 Y89.641 E-0.06337
G1 X123.627 Y89.468 E-0.06337
G1 X123.440 Y89.268 E-0.06338
G1 X123.282 Y89.043 E-0.06337
G1 X123.156 Y88.800 E-0.06337
G1 X123.064 Y88.541 E-0.06338
G1 X123.008 Y88.272 E-0.06337
G1 X122.990 Y88.020 E-0.05850
G1 X123.002 Y87.820 E-0.04615
;WIPE_END
G1 E-0.04000 F2100.000
G1 Z0.600 F10800.000
G1 X123.213 Y113.178
G1 Z0.200
G1 E0.80000 F2100.000
;TYPE:Perimeter
G1 F1200.000
G1 X123.213 Y138.211 E0.78491
G1 X112.787 Y138.211 E0.32689
M73 P0 R58
G1 X112.787 Y85.638 E1.64839
G1 X113.097 Y85.570 E0.00995
G1 X113.587 Y85.415 E0.01613
G1 X114.060 Y85.231 E0.01591
G1 X114.529 Y85.012 E0.01624
G1 X114.964 Y84.774 E0.01554
G1 X115.392 Y84.501 E0.01590
G1 X115.801 Y84.202 E0.01590
G1 X116.190 Y83.877 E0.01590
G1 X116.557 Y83.527 E0.01590
G1 X116.900 Y83.153 E0.01590
G1 X117.218 Y82.759 E0.01590
G1 X117.510 Y82.344 E0.01590
G1 X117.774 Y81.912 E0.01590
G1 X118.010 Y81.463 E0.01590
G1 X118.216 Y80.999 E0.01590
G1 X118.391 Y80.523 E0.01590
G1 X118.535 Y80.037 E0.01590
G1 X118.647 Y79.543 E0.01590
G1 X118.727 Y79.042 E0.01590
G1 X118.774 Y78.537 E0.01590
G1 X118.798 Y77.630 E0.02845
G1 X118.835 Y77.231 E0.01256
G1 X118.897 Y76.836 E0.01256
G1 X118.985 Y76.445 E0.01256
G1 X119.097 Y76.061 E0.01256
G1 X119.235 Y75.684 E0.01256
G1 X119.396 Y75.318 E0.01256
G1 X119.580 Y74.962 E0.01256
G1 X119.787 Y74.619 E0.01256
G1 X120.015 Y74.290 E0.01256
G1 X120.265 Y73.977 E0.01256
G1 X120.534 Y73.680 E0.01256
G1 X120.821 Y73.402 E0.01256
G1 X121.126 Y73.142 E0.01256
G1 X121.447 Y72.902 E0.01256
G1 X121.783 Y72.684 E0.01256
G1 X122.132 Y72.488 E0.01256
G1 X122.493 Y72.314 E0.01256
G1 X122.858 Y72.167 E0.01235
G1 X124.019 Y71.812 E0.03807
G1 X124.016 Y72.302 E0.01535
G1 X123.442 Y72.425 E0.01843
G1 X123.015 Y72.562 E0.01407
G1 X122.599 Y72.732 E0.01407
G1 X122.199 Y72.934 E0.01407
G1 X121.815 Y73.166 E0.01407
G1 X121.450 Y73.428 E0.01407
G1 X121.107 Y73.716 E0.01407
G1 X120.787 Y74.031 E0.01407
G1 X120.492 Y74.369 E0.01407
G1 X120.224 Y74.729 E0.01407
G1 X119.985 Y75.109 E0.01407
G1 X119.777 Y75.506 E0.01407
G1 X119.599 Y75.918 E0.01407
G1 X119.454 Y76.343 E0.01407
G1 X119.343 Y76.777 E0.01407
G1 X119.265 Y77.219 E0.01407
G1 X119.222 Y77.666 E0.01407
G1 X119.213 Y78.114 E0.01407
G1 X119.240 Y78.562 E0.01407
G1 X119.301 Y79.007 E0.01407
G1 X119.396 Y79.445 E0.01407
G1 X119.525 Y79.875 E0.01407
G1 X119.687 Y80.293 E0.01407
G1 X119.880 Y80.698 E0.01407
G1 X120.105 Y81.087 E0.01407
G1 X120.359 Y81.456 E0.01407
G1 X120.641 Y81.806 E0.01407
G1 X120.949 Y82.132 E0.01407
G1 X121.281 Y82.433 E0.01407
G1 X121.636 Y82.708 E0.01407
G1 X122.011 Y82.954 E0.01407
G1 X122.403 Y83.171 E0.01407
G1 X122.812 Y83.357 E0.01407
G1 X123.234 Y83.510 E0.01407
G1 X123.666 Y83.630 E0.01407
G1 X124.106 Y83.717 E0.01407
G1 X124.552 Y83.769 E0.01407
G1 X125.000 Y83.786 E0.01407
G1 X125.448 Y83.769 E0.01407
G1 X125.894 Y83.717 E0.01407
G1 X126.334 Y83.630 E0.01407
G1 X126.766 Y83.510 E0.01407
G1 X127.188 Y83.357 E0.01407
G1 X127.597 Y83.171 E0.01407
G1 X127.989 Y82.954 E0.01407
G1 X128.364 Y82.708 E0.01407
G1 X128.719 Y82.433 E0.01407
G1 X129.051 Y82.132 E0.01407
G1 X129.359 Y81.806 E0.01407
G1 X129.641 Y81.456 E0.01407
G1 X129.895 Y81.087 E0.01407
G1 X130.120 Y80.698 E0.01407
G1 X130.313 Y80.293 E0.01407
G1 X130.475 Y79.875 E0.01407
G1 X130.604 Y79.445 E0.01407
G1 X130.699 Y79.007 E0.01407
G1 X130.760 Y78.562 E0.01407
G1 X130.787 Y78.114 E0.01407
G1 X130.778 Y77.666 E0.01407
G1 X130.735 Y77.219 E0.01407
G1 X130.657 Y76.777 E0.01407
G1 X130.546 Y76.343 E0.01407
G1 X130.401 Y75.918 E0.01407
G1 X130.223 Y75.506 E0.01407
G1 X130.015 Y75.109 E0.01407
G1 X129.776 Y74.729 E0.01407
G1 X129.508 Y74.369 E0.01407
G1 X129.213 Y74.031 E0.01407
G1 X128.893 Y73.716 E0.01407
G1 X128.550 Y73.428 E0.01407
G1 X128.185 Y73.166 E0.01407
G1 X127.801 Y72.934 E0.01407
G1 X127.401 Y72.732 E0.01407
G1 X126.985 Y72.562 E0.01407
G1 X126.558 Y72.425 E0.01407
G1 X125.984 Y72.302 E0.01843
G1 X125.981 Y71.857 E0.01396
G1 X126.761 Y72.041 E0.02516
G1 X127.136 Y72.165 E0.01236
G1 X127.507 Y72.314 E0.01256
G1 X127.868 Y72.488 E0.01256
G1 X128.217 Y72.684 E0.01256
G1 X128.553 Y72.902 E0.01256
G1 X128.874 Y73.142 E0.01256
G1 X129.179 Y73.402 E0.01256
G1 X129.466 Y73.680 E0.01256
G1 X129.735 Y73.977 E0.01256
G1 X129.985 Y74.290 E0.01256
G1 X130.213 Y74.619 E0.01256
G1 X130.420 Y74.962 E0.01256
G1 X130.604 Y75.318 E0.01256
G1 X130.765 Y75.684 E0.01256
G1 X130.903 Y76.061 E0.01256
G1 X131.015 Y76.445 E0.01256
G1 X131.103 Y76.836 E0.01256
G1 X131.165 Y77.231 E0.01256
G1 X131.202 Y77.630 E0.01256
G1 X131.226 Y78.537 E0.02845
G1 X131.273 Y79.042 E0.01590
G1 X131.353 Y79.543 E0.01590
G1 X131.465 Y80.037 E0.01590
G1 X131.609 Y80.523 E0.01590
G1 X131.784 Y80.999 E0.01590
G1 X131.990 Y81.463 E0.01590
G1 X132.226 Y81.912 E0.01590
G1 X132.490 Y82.344 E0.01590
G1 X132.782 Y82.759 E0.01590
G1 X133.100 Y83.153 E0.01590
G1 X133.443 Y83.527 E0.01590
G1 X133.810 Y83.877 E0.01590
G1 X134.199 Y84.202 E0.01590
G1 X134.608 Y84.501 E0.01590
G1 X135.036 Y84.774 E0.01590
G1 X135.481 Y85.017 E0.01590
G1 X135.940 Y85.232 E0.01590
G1 X136.413 Y85.415 E0.01590
G1 X136.903 Y85.570 E0.01613
G1 X137.213 Y85.638 E0.00995
G1 X137.213 Y113.178 E0.86348
M73 P1 R58
M73 Q1 S59
G1 X123.273 Y113.178 E0.43708
G1 X123.590 Y113.555 F10800.000
;TYPE:External perimeter
G1 F1200.000
G1 X123.590 Y138.589 E0.78491
G1 X112.410 Y138.589 E0.35054
G1 X112.410 Y85.335 E1.66973
M73 Q1 S58
G1 X113.000 Y85.206 E0.01893
G1 X113.462 Y85.060 E0.01521
G1 X113.912 Y84.885 E0.01513
G1 X114.359 Y84.675 E0.01547
G1 X114.772 Y84.449 E0.01478
G1 X115.179 Y84.190 E0.01513
G1 X115.568 Y83.905 E0.01513
G1 X115.938 Y83.595 E0.01513
G1 X116.287 Y83.262 E0.01513
G1 X116.614 Y82.907 E0.01513
G1 X116.917 Y82.532 E0.01513
G1 X117.195 Y82.137 E0.01513
G1 X117.446 Y81.725 E0.01513
G1 X117.670 Y81.298 E0.01513
G1 X117.866 Y80.857 E0.01513
G1 X118.033 Y80.405 E0.01513
G1 X118.170 Y79.942 E0.01513
G1 X118.277 Y79.471 E0.01513
G1 X118.352 Y78.995 E0.01513
G1 X118.397 Y78.515 E0.01513
G1 X118.422 Y77.608 E0.02844
G1 X118.461 Y77.185 E0.01332
G1 X118.527 Y76.765 E0.01332
G1 X118.620 Y76.351 E0.01332
G1 X118.739 Y75.943 E0.01332
G1 X118.884 Y75.544 E0.01332
G1 X119.055 Y75.155 E0.01332
G1 X119.251 Y74.778 E0.01332
G1 X119.470 Y74.414 E0.01332
G1 X119.713 Y74.065 E0.01332
G1 X119.977 Y73.733 E0.01332
G1 X120.262 Y73.418 E0.01332
