; generated by PrusaSlicer 2.3.0+win64 on 2021-03-23 at 14:23:46 UTC

; 

; external perimeters extrusion width = 0.45mm
; perimeters extrusion width = 0.45mm
; infill extrusion width = 0.45mm
; solid infill extrusion width = 0.45mm
; top infill extrusion width = 0.40mm
; first layer extrusion width = 0.42mm

M73 P0 R8
M73 Q0 S8
M201 X1000 Y1000 Z200 E5000 ; sets maximum accelerations, mm/sec^2
M203 X200 Y200 Z12 E120 ; sets maximum feedrates, mm/sec
M204 P1250 R1250 T1250 ; sets acceleration (P, T) and retract acceleration (R), mm/sec^2
M205 X8.00 Y8.00 Z0.40 E4.50 ; sets the jerk limits, mm/sec
M205 S0 T0 ; sets the minimum extruding and travel feed rate, mm/sec
M107
;TYPE:Custom
M862.3 P "MK3SMMU2S" ; printer model check
M862.1 P0.4 ; nozzle diameter check
M115 U3.9.3 ; tell printer latest fw version
G90 ; use absolute coordinates
M83 ; extruder relative mode
M104 S215 ; set extruder temp
M140 S60 ; set bed temp
Tx
M190 S60 ; wait for bed temp
M109 S215 ; wait for extruder temp
G28 W ; home all without mesh bed level
G80 ; mesh bed leveling

;go outside print area
G1 Y-3.0 F1000.0
G1 Z0.4 F1000.0
; select extruder
Tc
; purge line
G1 X55.0 F2000.0
G1 Z0.3 F1000.0
G92 E0.0
G1 X240.0 E25.0 F2200.0
M73 P1 R8
M73 Q1 S8
G1 Y-2.0 F1000.0
G1 X55.0 E25 F1400.0
M73 P3 R8
M73 Q3 S8
G1 Z0.20 F1000.0
G1 X5.0 E4.0 F1000.0

M221 S95
G92 E0.0

; Don't change E values below. Excessive value can damage the printer.

M907 E538 ; set extruder motor current
G21 ; set units to millimeters
G90 ; use absolute coordinates
M83 ; use relative distances for extrusion
M900 K0.05 ; Filament gcode LA 1.5
M900 K30 ; Filament gcode LA 1.0
;LAYER_CHANGE
;Z:0.2
;HEIGHT:0.2
;BEFORE_LAYER_CHANGE
G92 E0.0
;0.2


G1 E-0.80000 F2100.000
G1 Z0.400 F10800.000
;AFTER_LAYER_CHANGE
;0.2
G1 X118.312 Y100.376
G1 Z0.200
G1 E0.80000 F2100.000
M204 S1000
;TYPE:Skirt
;WIDTH:0.42
M73 Q4 S8
G1 F1200.000
G1 X119.307 Y99.194 E0.04846
G1 X120.511 Y98.221 E0.04853
M73 P4 R8
G1 X121.877 Y97.493 E0.04855
G1 X123.503 Y97.008 E0.05319
G1 X125.036 Y96.869 E0.04828
G1 X126.582 Y97.024 E0.04871
G1 X128.074 Y97.472 E0.04883
G1 X129.565 Y98.271 E0.05305
G1 X130.774 Y99.275 E0.04925
G1 X131.759 Y100.480 E0.04883
G1 X132.548 Y101.977 E0.05305
G1 X132.989 Y103.485 E0.04925
G1 X133.131 Y105.001 E0.04773
G1 X132.982 Y106.551 E0.04883
G1 X132.488 Y108.169 E0.05306
G1 X131.739 Y109.550 E0.04925
G1 X130.770 Y110.730 E0.04787
G1 X129.579 Y111.719 E0.04855
G1 X128.085 Y112.523 E0.05319
G1 X126.581 Y112.976 E0.04925
G1 X125.044 Y113.131 E0.04842
G1 X123.519 Y112.995 E0.04800
G1 X121.888 Y112.512 E0.05333
G1 X120.505 Y111.776 E0.04912
G1 X119.293 Y110.792 E0.04896
G1 X118.216 Y109.482 E0.05319
G1 X117.482 Y108.097 E0.04912
G1 X117.029 Y106.607 E0.04882
G1 X116.869 Y104.923 E0.05306
G1 X117.038 Y103.352 E0.04953
G1 X117.496 Y101.869 E0.04868
G1 X118.283 Y100.429 E0.05145
G1 X118.612 Y100.609 F10800.000
G1 F1200.000
G1 X119.572 Y99.463 E0.04687
G1 X120.720 Y98.534 E0.04629
G1 X122.023 Y97.840 E0.04628
G1 X123.576 Y97.378 E0.05082
G1 X125.038 Y97.246 E0.04602
G1 X126.510 Y97.394 E0.04639
G1 X127.928 Y97.820 E0.04641
G1 X129.356 Y98.586 E0.05082
G1 X130.507 Y99.541 E0.04690
G1 X131.446 Y100.691 E0.04654
G1 X132.200 Y102.121 E0.05069
G1 X132.619 Y103.557 E0.04690
G1 X132.754 Y105.002 E0.04551
G1 X132.612 Y106.475 E0.04641
G1 X132.139 Y108.026 E0.05082
G1 X131.426 Y109.340 E0.04690
G1 X130.504 Y110.462 E0.04551
G1 X129.369 Y111.406 E0.04628
G1 X127.938 Y112.176 E0.05095
G1 X126.506 Y112.606 E0.04690
G1 X125.045 Y112.754 E0.04603
G1 X123.591 Y112.625 E0.04577
G1 X122.033 Y112.164 E0.05095
G1 X120.713 Y111.461 E0.04690
G1 X119.560 Y110.526 E0.04653
G1 X118.530 Y109.274 E0.05082
G1 X117.830 Y107.953 E0.04690
G1 X117.399 Y106.532 E0.04654
G1 X117.247 Y104.923 E0.05069
G1 X117.407 Y103.427 E0.04716
M73 Q5 S8
G1 X117.843 Y102.017 E0.04628
G1 X118.584 Y100.662 E0.04844
G1 X118.875 Y100.900 F10800.000
M73 P5 R8
G1 F1200.000
G1 X119.817 Y99.751 E0.04661
G1 X120.923 Y98.852 E0.04466
G1 X122.161 Y98.191 E0.04400
G1 X123.645 Y97.749 E0.04858
G1 X125.036 Y97.623 E0.04377
G1 X126.434 Y97.764 E0.04407
G1 X127.782 Y98.168 E0.04412
G1 X129.148 Y98.900 E0.04858
G1 X130.237 Y99.805 E0.04442
G1 X131.131 Y100.897 E0.04424
G1 X131.851 Y102.265 E0.04846
G1 X132.248 Y103.629 E0.04454
G1 X132.377 Y104.999 E0.04317
G1 X132.243 Y106.400 E0.04412
G1 X131.790 Y107.882 E0.04858
G1 X131.112 Y109.130 E0.04454
G1 X130.236 Y110.197 E0.04329
G1 X129.156 Y111.094 E0.04401
G1 X127.792 Y111.828 E0.04858
G1 X126.431 Y112.237 E0.04454
G1 X125.046 Y112.377 E0.04365
G1 X123.663 Y112.255 E0.04353
G1 X122.177 Y111.816 E0.04858
G1 X120.926 Y111.150 E0.04443
G1 X119.846 Y110.278 E0.04353
G1 X118.944 Y109.213 E0.04377
G1 X118.197 Y107.852 E0.04870
G1 X117.776 Y106.495 E0.04454
G1 X117.624 Y105.092 E0.04425
G1 X117.766 Y103.553 E0.04845
G1 X118.178 Y102.193 E0.04454
G1 X118.837 Y100.947 E0.04421
; printing object CableGuideInsert.stl id:0 copy 0
;WIPE_START
G1 F8640.000
G1 X119.817 Y99.751 E-0.35711
G1 X120.923 Y98.852 E-0.32890
G1 X121.205 Y98.701 E-0.07400
;WIPE_END
G1 E-0.04000 F2100.000
G1 Z0.600 F10800.000
G1 X123.262 Y103.917
G1 Z0.200
G1 E0.80000 F2100.000
;TYPE:Perimeter
G1 F1200.000
G1 X123.516 Y103.589 E0.01299
G1 X123.830 Y103.319 E0.01299
G1 X124.192 Y103.118 E0.01299
G1 X124.584 Y102.995 E0.01288
G1 X124.942 Y102.954 E0.01129
G1 X125.313 Y102.976 E0.01165
G1 X125.711 Y103.079 E0.01291
G1 X126.083 Y103.262 E0.01299
G1 X126.405 Y103.511 E0.01276
G1 X126.624 Y103.753 E0.01022
G1 X126.839 Y104.098 E0.01276
G1 X126.983 Y104.487 E0.01299
G1 X127.045 Y104.896 E0.01299
G1 X127.024 Y105.310 E0.01299
G1 X126.921 Y105.711 E0.01299
G1 X126.738 Y106.083 E0.01299
G1 X126.489 Y106.405 E0.01276
G1 X126.247 Y106.624 E0.01022
G1 X125.902 Y106.839 E0.01276
G1 X125.513 Y106.983 E0.01299
G1 X125.104 Y107.045 E0.01299
G1 X124.690 Y107.024 E0.01299
G1 X124.289 Y106.921 E0.01299
G1 X123.917 Y106.738 E0.01299
G1 X123.595 Y106.489 E0.01276
G1 X123.376 Y106.247 E0.01022
G1 X123.161 Y105.902 E0.01276
G1 X123.017 Y105.513 E0.01299
G1 X122.955 Y105.104 E0.01299
G1 X122.976 Y104.690 E0.01299
G1 X123.079 Y104.289 E0.01299
G1 X123.235 Y103.971 E0.01111
G1 X123.574 Y104.137 F10800.000
;TYPE:External perimeter
G1 F1200.000
G1 X123.790 Y103.850 E0.01125
G1 X124.047 Y103.630 E0.01059
G1 X124.342 Y103.466 E0.01059
G1 X124.663 Y103.366 E0.01055
G1 X124.952 Y103.332 E0.00913
G1 X125.254 Y103.350 E0.00947
G1 X125.580 Y103.435 E0.01056
G1 X125.883 Y103.584 E0.01059
G1 X126.148 Y103.789 E0.01050
G1 X126.321 Y103.981 E0.00811
G1 X126.498 Y104.265 E0.01050
G1 X126.616 Y104.582 E0.01059
G1 X126.667 Y104.915 E0.01059
G1 X126.650 Y105.253 E0.01059
G1 X126.565 Y105.580 E0.01059
G1 X126.416 Y105.883 E0.01059
G1 X126.211 Y106.148 E0.01050
G1 X126.019 Y106.321 E0.00811
G1 X125.735 Y106.498 E0.01050
G1 X125.418 Y106.616 E0.01059
G1 X125.085 Y106.667 E0.01059
G1 X124.747 Y106.650 E0.01059
G1 X124.420 Y106.565 E0.01059
G1 X124.117 Y106.416 E0.01059
G1 X123.852 Y106.211 E0.01050
G1 X123.679 Y106.019 E0.00811
G1 X123.502 Y105.735 E0.01050
G1 X123.384 Y105.418 E0.01059
G1 X123.333 Y105.085 E0.01059
G1 X123.350 Y104.747 E0.01059
G1 X123.435 Y104.420 E0.01059
G1 X123.548 Y104.190 E0.00803
G1 X123.402 Y103.821 F10800.000
;WIPE_START
G1 F8640.000
G1 X123.790 Y103.850 E-0.09652
G1 X124.047 Y103.630 E-0.07798
G1 X124.342 Y103.466 E-0.07798
G1 X124.663 Y103.366 E-0.07767
G1 X124.952 Y103.332 E-0.06724
G1 X125.254 Y103.350 E-0.06977
G1 X125.580 Y103.435 E-0.07776
G1 X125.883 Y103.584 E-0.07798
G1 X126.148 Y103.789 E-0.07736
G1 X126.321 Y103.981 E-0.05975
;WIPE_END
G1 E-0.04000 F2100.000
G1 Z0.600 F10800.000
G1 X121.251 Y103.092
G1 Z0.200
G1 E0.80000 F2100.000
;TYPE:Perimeter
G1 F1200.000
G1 X121.466 Y102.707 E0.01383
G1 X121.746 Y102.325 E0.01484
G1 X122.063 Y101.981 E0.01467
G1 X122.421 Y101.669 E0.01489
G1 X122.668 Y101.492 E0.00953
G1 X123.075 Y101.254 E0.01478
G1 X123.511 Y101.060 E0.01495
G1 X123.799 Y100.963 E0.00953
G1 X124.263 Y100.853 E0.01495
G1 X124.566 Y100.810 E0.00959
G1 X125.040 Y100.788 E0.01489
G1 X125.512 Y100.819 E0.01484
M73 Q6 S8
G1 X125.813 Y100.867 E0.00953
G1 X126.271 Y100.984 E0.01484
G1 X126.710 Y101.151 E0.01472
G1 X127.133 Y101.367 E0.01489
G1 X127.389 Y101.531 E0.00953
G1 X127.767 Y101.824 E0.01501
G1 X127.989 Y102.032 E0.00953
G1 X128.305 Y102.389 E0.01495
M73 P6 R8
G1 X128.576 Y102.775 E0.01478
G1 X128.728 Y103.038 E0.00954
G1 X128.926 Y103.474 E0.01501
G1 X129.026 Y103.761 E0.00953
G1 X129.140 Y104.222 E0.01489
G1 X129.200 Y104.686 E0.01467
G1 X129.209 Y105.159 E0.01484
G1 X129.187 Y105.464 E0.00959
G1 X129.107 Y105.936 E0.01500
G1 X129.029 Y106.230 E0.00953
G1 X128.864 Y106.676 E0.01489
G1 X128.652 Y107.099 E0.01484
G1 X128.491 Y107.357 E0.00953
G1 X128.204 Y107.735 E0.01489
G1 X127.877 Y108.077 E0.01484
G1 X127.647 Y108.276 E0.00953
G1 X127.261 Y108.553 E0.01489
G1 X126.849 Y108.785 E0.01484
G1 X126.571 Y108.908 E0.00954
G1 X126.124 Y109.059 E0.01478
G1 X125.658 Y109.161 E0.01495
G1 X125.356 Y109.197 E0.00953
G1 X124.878 Y109.211 E0.01501
G1 X124.575 Y109.191 E0.00953
G1 X124.107 Y109.116 E0.01484
G1 X123.651 Y108.990 E0.01484
G1 X123.365 Y108.882 E0.00959
G1 X122.939 Y108.673 E0.01489
G1 X122.539 Y108.419 E0.01484
G1 X122.299 Y108.233 E0.00953
G1 X121.950 Y107.905 E0.01501
G1 X121.748 Y107.678 E0.00954
G1 X121.466 Y107.293 E0.01495
G1 X121.309 Y107.030 E0.00959
G1 X121.105 Y106.602 E0.01489
G1 X120.949 Y106.155 E0.01484
G1 X120.876 Y105.860 E0.00953
G1 X120.806 Y105.392 E0.01484
G1 X120.789 Y104.917 E0.01489
G1 X120.805 Y104.614 E0.00953
G1 X120.876 Y104.140 E0.01501
G1 X120.949 Y103.845 E0.00953
G1 X121.105 Y103.396 E0.01489
G1 X121.225 Y103.146 E0.00870
G1 X120.756 Y103.253 F10800.000
;TYPE:External perimeter
G1 F1200.000
G1 X120.977 Y102.791 E0.01605
G1 X121.152 Y102.498 E0.01069
G1 X121.454 Y102.086 E0.01605
G1 X121.800 Y101.710 E0.01599
G1 X122.187 Y101.373 E0.01610
G1 X122.463 Y101.175 E0.01063
G1 X122.903 Y100.918 E0.01599
G1 X123.373 Y100.708 E0.01616
G1 X123.695 Y100.600 E0.01063
G1 X124.193 Y100.482 E0.01605
G1 X124.531 Y100.434 E0.01069
G1 X125.044 Y100.411 E0.01610
G1 X125.554 Y100.444 E0.01605
G1 X125.889 Y100.497 E0.01063
G1 X126.385 Y100.624 E0.01605
G1 X126.863 Y100.806 E0.01604
G1 X127.320 Y101.040 E0.01610
G1 X127.606 Y101.222 E0.01063
G1 X128.012 Y101.537 E0.01611
G1 X128.260 Y101.769 E0.01063
G1 X128.601 Y102.155 E0.01616
G1 X128.895 Y102.572 E0.01599
G1 X129.064 Y102.866 E0.01063
G1 X129.277 Y103.334 E0.01611
G1 X129.388 Y103.654 E0.01063
G1 X129.511 Y104.153 E0.01610
G1 X129.577 Y104.658 E0.01599
G1 X129.587 Y105.170 E0.01605
G1 X129.561 Y105.510 E0.01069
G1 X129.476 Y106.016 E0.01611
G1 X129.389 Y106.344 E0.01063
G1 X129.211 Y106.826 E0.01610
G1 X128.981 Y107.283 E0.01605
G1 X128.802 Y107.571 E0.01063
G1 X128.491 Y107.980 E0.01610
G1 X128.137 Y108.350 E0.01605
G1 X127.881 Y108.573 E0.01063
G1 X127.464 Y108.872 E0.01610
G1 X127.018 Y109.122 E0.01605
G1 X126.708 Y109.260 E0.01063
G1 X126.225 Y109.423 E0.01599
G1 X125.721 Y109.533 E0.01616
G1 X125.385 Y109.574 E0.01063
G1 X124.871 Y109.588 E0.01611
G1 X124.533 Y109.566 E0.01063
G1 X124.027 Y109.485 E0.01605
G1 X123.534 Y109.349 E0.01605
G1 X123.215 Y109.228 E0.01069
G1 X122.754 Y109.002 E0.01610
G1 X122.322 Y108.728 E0.01605
G1 X122.054 Y108.520 E0.01063
G1 X121.679 Y108.168 E0.01611
G1 X121.454 Y107.915 E0.01063
G1 X121.152 Y107.502 E0.01605
G1 X120.977 Y107.209 E0.01069
G1 X120.755 Y106.746 E0.01610
G1 X120.587 Y106.262 E0.01605
G1 X120.506 Y105.933 E0.01063
G1 X120.430 Y105.427 E0.01605
G1 X120.411 Y104.914 E0.01610
G1 X120.430 Y104.575 E0.01063
G1 X120.506 Y104.067 E0.01611
G1 X120.587 Y103.738 E0.01063
G1 X120.736 Y103.309 E0.01422
G1 X121.153 Y103.202 F10800.000
;WIPE_START
G1 F8640.000
G1 X120.977 Y102.791 E-0.13194
G1 X121.152 Y102.498 E-0.07872
G1 X121.454 Y102.086 E-0.11818
G1 X121.800 Y101.710 E-0.11772
G1 X122.187 Y101.373 E-0.11859
G1 X122.463 Y101.175 E-0.07831
G1 X122.898 Y100.920 E-0.11653
;WIPE_END
G1 E-0.04000 F2100.000
G1 Z0.600 F10800.000
G1 X126.944 Y101.398
G1 Z0.200
G1 E0.80000 F2100.000
;TYPE:Solid infill
;WIDTH:0.435043
G1 F1200.000
G1 X127.867 Y102.320 E0.04253
G1 X128.083 Y102.565 E0.01064
G1 X128.338 Y102.927 E0.01443
G1 X128.476 Y103.168 E0.00906
G1 X128.713 Y103.721 E0.01962
G1 X126.283 Y101.291 E0.11203
G1 X125.755 Y101.144 E0.01787
G1 X125.548 Y101.111 E0.00683
G1 X128.884 Y104.447 E0.15380
G1 X128.918 Y104.707 E0.00858
G1 X128.924 Y105.042 E0.01090
G1 X124.958 Y101.075 E0.18289
G1 X124.441 Y101.113 E0.01688
G1 X128.884 Y105.556 E0.20487
G1 X128.792 Y106.019 E0.01538
G1 X127.270 Y104.497 E0.07018
G1 X127.258 Y104.415 E0.00269
G1 X127.094 Y103.973 E0.01539
G1 X126.850 Y103.582 E0.01502
G1 X126.598 Y103.303 E0.01226
G1 X126.234 Y103.021 E0.01502
G1 X125.810 Y102.813 E0.01539
G1 X125.508 Y102.735 E0.01017
G1 X123.983 Y101.210 E0.07032
G1 X123.564 Y101.345 E0.01435
G1 X124.894 Y102.675 E0.06130
G1 X124.525 Y102.717 E0.01210
G1 X124.416 Y102.751 E0.00374
G1 X123.183 Y101.518 E0.05686
M73 Q7 S8
G1 X122.833 Y101.723 E0.01321
G1 X124.007 Y102.897 E0.05414
G1 X123.653 Y103.098 E0.01326
M73 P7 R8
G1 X122.517 Y101.961 E0.05242
G1 X122.224 Y102.223 E0.01280
G1 X123.355 Y103.354 E0.05214
G1 X123.104 Y103.658 E0.01284
G1 X121.959 Y102.513 E0.05280
G1 X121.725 Y102.833 E0.01294
G1 X122.901 Y104.010 E0.05425
G1 X122.813 Y104.190 E0.00655
G1 X122.754 Y104.417 E0.00764
G1 X121.521 Y103.183 E0.05688
G1 X121.346 Y103.564 E0.01364
G1 X122.843 Y105.061 E0.06903
;WIPE_START
G1 F8640.000
G1 X121.346 Y103.564 E-0.48885
G1 X121.521 Y103.183 E-0.09660
G1 X122.055 Y103.718 E-0.17455
;WIPE_END
G1 E-0.04000 F2100.000
G1 Z0.600 F10800.000
G1 X127.157 Y104.938
G1 Z0.200
G1 E0.80000 F2100.000
G1 F1200.000
G1 X128.652 Y106.433 E0.06897
G1 X128.479 Y106.814 E0.01365
G1 X127.246 Y105.582 E0.05682
G1 X127.187 Y105.810 E0.00769
G1 X127.099 Y105.989 E0.00651
G1 X128.277 Y107.167 E0.05429
G1 X128.039 Y107.484 E0.01292
G1 X126.896 Y106.341 E0.05269
G1 X126.646 Y106.645 E0.01284
G1 X127.775 Y107.774 E0.05207
G1 X127.487 Y108.041 E0.01279
G1 X126.343 Y106.897 E0.05275
G1 X125.997 Y107.105 E0.01318
G1 X127.166 Y108.274 E0.05389
G1 X126.816 Y108.479 E0.01321
G1 X125.592 Y107.255 E0.05643
G1 X125.112 Y107.329 E0.01585
G1 X126.438 Y108.655 E0.06114
G1 X126.020 Y108.792 E0.01432
G1 X124.494 Y107.266 E0.07039
G1 X124.190 Y107.187 E0.01024
M73 P7 R7
G1 X123.766 Y106.979 E0.01539
G1 X123.402 Y106.697 E0.01502
G1 X123.150 Y106.418 E0.01226
G1 X122.906 Y106.027 E0.01502
G1 X122.742 Y105.585 E0.01539
G1 X122.729 Y105.501 E0.00275
G1 X121.207 Y103.979 E0.07018
G1 X121.117 Y104.443 E0.01542
G1 X125.561 Y108.887 E0.20492
G1 X125.042 Y108.923 E0.01696
G1 X121.073 Y104.954 E0.18302
G1 X121.088 Y105.365 E0.01343
G1 X121.116 Y105.552 E0.00614
G1 X124.449 Y108.884 E0.15367
G1 X124.167 Y108.839 E0.00929
G1 X123.726 Y108.717 E0.01492
G1 X121.293 Y106.283 E0.11220
G1 X121.367 Y106.494 E0.00728
G1 X121.559 Y106.897 E0.01454
G1 X121.702 Y107.136 E0.00911
G1 X121.969 Y107.500 E0.01469
G1 X123.064 Y108.608 E0.05081
; stop printing object CableGuideInsert.stl id:0 copy 0
M106 S84.15
;LAYER_CHANGE
;Z:0.4
;HEIGHT:0.2
;BEFORE_LAYER_CHANGE
G92 E0.0
;0.4


;WIPE_START
G1 F8640.000
G1 X121.969 Y107.500 E-0.35981
M73 Q7 S7
G1 X121.702 Y107.136 E-0.10406
G1 X121.559 Y106.897 E-0.06452
G1 X121.367 Y106.494 E-0.10297
G1 X121.293 Y106.283 E-0.05158
G1 X121.529 Y106.519 E-0.07706
;WIPE_END
G1 E-0.04000 F2100.000
G1 Z0.600 F10800.000
;AFTER_LAYER_CHANGE
;0.4
G1 X118.216 Y109.482
G1 Z0.400
G1 E0.80000 F2100.000
;TYPE:Skirt
;WIDTH:0.42
G1 F1389
G1 X117.482 Y108.097 E0.04912
G1 X117.029 Y106.607 E0.04882
G1 X116.869 Y104.923 E0.05306
G1 X117.038 Y103.352 E0.04953
G1 X117.496 Y101.869 E0.04868
G1 X118.312 Y100.376 E0.05333
G1 X119.307 Y99.194 E0.04846
M73 Q8 S7
G1 X120.511 Y98.221 E0.04853
M73 P8 R7
G1 X121.877 Y97.493 E0.04855
G1 X123.503 Y97.008 E0.05319
G1 X125.036 Y96.869 E0.04828
G1 X126.582 Y97.024 E0.04871
G1 X128.074 Y97.472 E0.04883
G1 X129.565 Y98.271 E0.05305
G1 X130.774 Y99.275 E0.04925
G1 X131.759 Y100.480 E0.04883
G1 X132.548 Y101.977 E0.05305
G1 X132.989 Y103.485 E0.04925
G1 X133.131 Y105.001 E0.04773
