; generated by PrusaSlicer 2.3.0+win64 on 2021-03-13 at 13:05:56 UTC

; 

; external perimeters extrusion width = 0.45mm
; perimeters extrusion width = 0.45mm
; infill extrusion width = 0.45mm
; solid infill extrusion width = 0.45mm
; top infill extrusion width = 0.40mm
; support material extrusion width = 0.35mm
; first layer extrusion width = 0.42mm

M73 P0 R83
M73 Q0 S83
M201 X1000 Y1000 Z200 E5000 ; sets maximum accelerations, mm/sec^2
M203 X200 Y200 Z12 E120 ; sets maximum feedrates, mm/sec
M204 P1250 R1250 T1250 ; sets acceleration (P, T) and retract acceleration (R), mm/sec^2
M205 X8.00 Y8.00 Z0.40 E4.50 ; sets the jerk limits, mm/sec
M205 S0 T0 ; sets the minimum extruding and travel feed rate, mm/sec
M107
;TYPE:Custom
M862.3 P "MK3SMMU2S" ; printer model check
M862.1 P0.4 ; nozzle diameter check
M115 U3.9.3 ; tell printer latest fw version
G90 ; use absolute coordinates
M83 ; extruder relative mode
M104 S215 ; set extruder temp
M140 S60 ; set bed temp
Tx
M190 S60 ; wait for bed temp
M109 S215 ; wait for extruder temp
G28 W ; home all without mesh bed level
G80 ; mesh bed leveling

;go outside print area
G1 Y-3.0 F1000.0
G1 Z0.4 F1000.0
; select extruder
Tc
; purge line
G1 X55.0 F2000.0
G1 Z0.3 F1000.0
G92 E0.0
G1 X240.0 E25.0 F2200.0
G1 Y-2.0 F1000.0
G1 X55.0 E25 F1400.0
M73 P0 R82
G1 Z0.20 F1000.0
G1 X5.0 E4.0 F1000.0

M221 S95
G92 E0.0

; Don't change E values below. Excessive value can damage the printer.

M907 E538 ; set extruder motor current
G21 ; set units to millimeters
G90 ; use absolute coordinates
M83 ; use relative distances for extrusion
M900 K0.05 ; Filament gcode LA 1.5
M900 K30 ; Filament gcode LA 1.0
;LAYER_CHANGE
;Z:0.2
;HEIGHT:0.2
;BEFORE_LAYER_CHANGE
G92 E0.0
;0.2


G1 E-0.80000 F2100.000
G1 Z0.400 F10800.000
;AFTER_LAYER_CHANGE
;0.2
G1 X93.662 Y90.244
G1 Z0.200
G1 E0.80000 F2100.000
M204 S1000
;TYPE:Skirt
;WIDTH:0.42
G1 F1200.000
G1 X93.832 Y89.700 E0.01787
G1 X94.127 Y89.212 E0.01787
G1 X94.526 Y88.811 E0.01775
G1 X95.013 Y88.513 E0.01787
G1 X137.368 Y69.355 E1.45756
G1 X139.157 Y68.806 E0.05867
G1 X141.002 Y68.623 E0.05813
G1 X142.833 Y68.804 E0.05771
G1 X144.597 Y69.340 E0.05780
G1 X146.226 Y70.214 E0.05796
G1 X147.662 Y71.401 E0.05842
G1 X148.808 Y72.808 E0.05687
G1 X155.993 Y83.704 E0.40924
G1 X156.254 Y84.245 E0.01882
G1 X156.377 Y84.993 E0.02378
G1 X156.338 Y114.398 E0.92197
G1 X156.075 Y115.127 E0.02428
G1 X142.071 Y140.167 E0.89956
M73 Q0 S82
G1 X141.626 Y140.734 E0.02260
G1 X140.920 Y141.192 E0.02637
G1 X140.103 Y141.375 E0.02626
G1 X127.568 Y141.338 E0.39302
G1 X126.762 Y141.029 E0.02708
G1 X94.751 Y121.329 E1.17851
G1 X94.349 Y121.016 E0.01597
G1 X94.020 Y120.622 E0.01609
G1 X93.729 Y120.008 E0.02130
G1 X93.623 Y119.333 E0.02142
G1 X93.662 Y90.304 E0.91019
; printing object CableGuideBearingCover.stl id:1 copy 0
;WIPE_START
G1 F8640.000
G1 X93.832 Y89.700 E-0.14490
G1 X94.127 Y89.212 E-0.13161
G1 X94.526 Y88.811 E-0.13074
G1 X95.013 Y88.513 E-0.13161
G1 X95.885 Y88.119 E-0.22115
;WIPE_END
G1 E-0.04000 F2100.000
G1 Z0.600 F10800.000
G1 X109.000 Y111.027
G1 Z0.200
G1 E0.80000 F2100.000
;TYPE:External perimeter
G1 F1200.000
G1 X112.160 Y112.851 E0.11441
G1 X112.160 Y116.500 E0.11441
G1 X109.000 Y118.325 E0.11441
G1 X105.840 Y116.500 E0.11441
G1 X105.840 Y112.851 E0.11441
G1 X108.948 Y111.057 E0.11253
G1 X109.200 Y110.681 F10800.000
;WIPE_START
G1 F8640.000
G1 X111.821 Y112.662 E-0.76000
;WIPE_END
G1 E-0.04000 F2100.000
G1 Z0.600 F10800.000
G1 X112.537 Y116.718
G1 Z0.200
G1 E0.80000 F2100.000
;TYPE:Perimeter
G1 F1200.000
G1 X112.537 Y112.634 E0.12806
G1 X109.000 Y110.592 E0.12806
G1 X105.463 Y112.634 E0.12806
G1 X105.463 Y116.718 E0.12806
G1 X108.293 Y118.352 E0.10245
G1 X108.248 Y118.519 E0.00544
G1 X96.787 Y118.519 E0.35934
G1 X96.787 Y91.463 E0.84835
G1 X105.475 Y91.457 E0.27240
G1 X105.462 Y95.717 E0.13358
G1 X109.000 Y97.760 E0.12810
G1 X112.538 Y95.717 E0.12809
G1 X112.526 Y91.457 E0.13358
G1 X121.213 Y91.463 E0.27236
G1 X121.213 Y118.519 E0.84835
G1 X109.752 Y118.519 E0.35934
G1 X109.707 Y118.352 E0.00544
G1 X112.485 Y116.748 E0.10057
;WIPE_START
G1 F8640.000
G1 X112.527 Y113.457 E-0.76000
;WIPE_END
G1 E-0.04000 F2100.000
G1 Z0.600 F10800.000
G1 X105.851 Y91.847
G1 Z0.200
G1 E0.80000 F2100.000
;TYPE:External perimeter
G1 F1200.000
G1 X105.840 Y95.500 E0.11455
G1 X109.000 Y97.325 E0.11442
G1 X112.160 Y95.500 E0.11442
G1 X112.150 Y91.847 E0.11453
G1 X111.503 Y91.527 E0.02265
G1 X110.617 Y91.192 E0.02970
G1 X110.378 Y91.054 E0.00866
G1 X110.423 Y90.886 E0.00544
G1 X110.751 Y90.886 E0.01030
G1 X111.721 Y91.048 E0.03084
G1 X112.227 Y91.080 E0.01588
G1 X121.590 Y91.086 E0.29357
G1 X121.590 Y118.897 E0.87199
G1 X96.410 Y118.897 E0.78950
G1 X96.410 Y91.086 E0.87199
G1 X105.773 Y91.080 E0.29357
G1 X106.279 Y91.048 E0.01588
G1 X107.249 Y90.886 E0.03084
G1 X107.577 Y90.886 E0.01030
G1 X107.622 Y91.054 E0.00544
G1 X107.420 Y91.170 E0.00731
G1 X107.015 Y91.341 E0.01377
G1 X106.574 Y91.497 E0.01467
G1 X105.905 Y91.821 E0.02331
G1 X105.454 Y91.900 F10800.000
;WIPE_START
G1 F8640.000
G1 X105.847 Y95.111 E-0.76000
;WIPE_END
G1 E-0.04000 F2100.000
G1 Z0.600 F10800.000
G1 X107.795 Y90.888
G1 Z0.200
G1 E0.80000 F2100.000
;WIDTH:0.309604
G1 F1200.000
G1 X108.492 Y90.752 E0.01574
;WIPE_START
G1 F8640.000
G1 X107.795 Y90.888 E-0.16387
;WIPE_END
G1 E-0.63613 F2100.000
G1 Z0.600 F10800.000
G1 X109.511 Y90.753
G1 Z0.200
G1 E0.80000 F2100.000
;WIDTH:0.309604
G1 F1200.000
G1 X110.205 Y90.888 E0.01569
G1 X111.147 Y91.166 F10800.000
;TYPE:Gap fill
;WIDTH:0.137055
G1 F1200.000
G1 X111.375 Y91.228 E0.00185
;WIDTH:0.182463
G1 X111.609 Y91.291 E0.00282
;WIDTH:0.209139
G1 X112.338 Y91.508 E0.01051
;WIPE_START
G1 F8640.000
G1 X111.609 Y91.291 E-0.17556
;WIPE_END
G1 E-0.62444 F2100.000
G1 Z0.600 F10800.000
G1 X106.895 Y91.160
G1 Z0.200
G1 E0.80000 F2100.000
;WIDTH:0.128357
G1 F1200.000
G1 X106.305 Y91.322 E0.00434
;WIDTH:0.261757
G1 X105.824 Y91.448 E0.00906
;WIDTH:0.399928
G1 X105.663 Y91.490 E0.00493
;WIPE_START
G1 F8640.000
G1 X105.824 Y91.448 E-0.03832
;WIPE_END
G1 E-0.76168 F2100.000
G1 Z0.600 F10800.000
G1 X120.330 Y91.575
G1 Z0.200
G1 E0.80000 F2100.000
;TYPE:Solid infill
;WIDTH:0.423312
G1 F1200.000
G1 X120.930 Y92.175 E0.02684
G1 X120.930 Y92.713 E0.01702
G1 X119.962 Y91.745 E0.04333
G1 X119.423 Y91.744 E0.01703
G1 X120.930 Y93.251 E0.06741
G1 X120.930 Y93.789 E0.01702
G1 X118.885 Y91.744 E0.09148
G1 X118.347 Y91.744 E0.01703
G1 X120.930 Y94.327 E0.11556
G1 X120.930 Y94.865 E0.01702
G1 X117.808 Y91.743 E0.13964
G1 X117.270 Y91.743 E0.01703
G1 X120.930 Y95.403 E0.16372
G1 X120.930 Y95.941 E0.01702
G1 X116.732 Y91.743 E0.18780
G1 X116.193 Y91.742 E0.01703
M73 Q1 S82
G1 X120.930 Y96.479 E0.21188
M73 P1 R82
G1 X120.930 Y97.017 E0.01702
G1 X115.655 Y91.742 E0.23595
G1 X115.117 Y91.742 E0.01703
G1 X120.930 Y97.555 E0.26003
G1 X120.930 Y98.093 E0.01702
G1 X114.579 Y91.741 E0.28411
G1 X114.040 Y91.741 E0.01703
G1 X120.930 Y98.631 E0.30819
G1 X120.930 Y99.169 E0.01702
G1 X113.502 Y91.741 E0.33227
G1 X112.964 Y91.740 E0.01703
G1 X120.930 Y99.707 E0.35635
G1 X120.930 Y100.245 E0.01702
G1 X112.811 Y92.126 E0.36317
G1 X112.813 Y92.665 E0.01706
G1 X120.930 Y100.782 E0.36311
G1 X120.930 Y101.320 E0.01702
G1 X112.814 Y93.204 E0.36304
G1 X112.815 Y93.744 E0.01706
G1 X120.930 Y101.858 E0.36298
G1 X120.930 Y102.396 E0.01702
G1 X112.817 Y94.283 E0.36291
G1 X112.818 Y94.823 E0.01706
G1 X120.930 Y102.934 E0.36285
G1 X120.930 Y103.472 E0.01702
G1 X112.820 Y95.362 E0.36278
G1 X112.821 Y95.880 E0.01640
G1 X112.808 Y95.888 E0.00048
G1 X120.930 Y104.010 E0.36331
G1 X120.930 Y104.548 E0.01702
G1 X112.467 Y96.085 E0.37857
G1 X112.126 Y96.282 E0.01246
G1 X120.930 Y105.086 E0.39382
G1 X120.930 Y105.624 E0.01702
G1 X111.785 Y96.479 E0.40908
G1 X111.444 Y96.676 E0.01246
G1 X120.930 Y106.162 E0.42433
G1 X120.930 Y106.700 E0.01702
G1 X111.103 Y96.873 E0.43959
G1 X110.762 Y97.070 E0.01246
G1 X120.930 Y107.238 E0.45485
G1 X120.930 Y107.776 E0.01702
G1 X110.421 Y97.266 E0.47010
G1 X110.080 Y97.463 E0.01246
G1 X120.930 Y108.314 E0.48536
G1 X120.930 Y108.852 E0.01702
G1 X109.739 Y97.660 E0.50061
G1 X109.397 Y97.857 E0.01246
G1 X120.930 Y109.390 E0.51587
G1 X120.930 Y109.928 E0.01702
G1 X109.056 Y98.054 E0.53112
G1 X109.000 Y98.087 E0.00206
G1 X107.938 Y97.473 E0.03879
G1 X120.930 Y110.466 E0.58116
G1 X120.930 Y111.004 E0.01702
G1 X106.201 Y96.275 E0.65883
;WIPE_START
G1 F8640.000
G1 X108.529 Y98.602 E-0.76000
;WIPE_END
G1 E-0.04000 F2100.000
G1 Z0.600 F10800.000
G1 X105.359 Y92.205
G1 Z0.200
G1 E0.80000 F2100.000
G1 F1200.000
G1 X104.894 Y91.740 E0.02080
G1 X104.357 Y91.741 E0.01700
G1 X105.189 Y92.572 E0.03721
G1 X105.187 Y93.109 E0.01696
G1 X103.819 Y91.741 E0.06118
G1 X103.282 Y91.741 E0.01700
G1 X105.185 Y93.645 E0.08516
G1 X105.184 Y94.181 E0.01696
G1 X102.744 Y91.742 E0.10913
G1 X102.206 Y91.742 E0.01700
G1 X105.182 Y94.718 E0.13311
G1 X105.180 Y95.254 E0.01696
G1 X101.669 Y91.742 E0.15708
G1 X101.131 Y91.743 E0.01700
G1 X120.930 Y111.542 E0.88563
M73 P1 R81
G1 X120.930 Y112.080 E0.01702
G1 X100.594 Y91.743 E0.90968
G1 X100.056 Y91.743 E0.01700
G1 X120.930 Y112.618 E0.93373
G1 X120.930 Y113.155 E0.01702
G1 X99.518 Y91.744 E0.95778
G1 X98.981 Y91.744 E0.01700
G1 X120.930 Y113.693 E0.98182
G1 X120.930 Y114.231 E0.01702
G1 X98.443 Y91.744 E1.00587
G1 X97.905 Y91.745 E0.01700
G1 X120.930 Y114.769 E1.02992
G1 X120.930 Y115.307 E0.01702
G1 X97.368 Y91.745 E1.05397
G1 X97.070 Y91.745 E0.00942
G1 X97.070 Y91.985 E0.00759
G1 X120.930 Y115.845 E1.06730
G1 X120.930 Y116.383 E0.01702
G1 X97.070 Y92.523 E1.06730
M73 Q1 S81
G1 X97.070 Y93.061 E0.01702
G1 X120.930 Y116.921 E1.06730
G1 X120.930 Y117.459 E0.01702
G1 X97.070 Y93.599 E1.06730
G1 X97.070 Y94.137 E0.01702
G1 X120.930 Y117.997 E1.06730
G1 X120.930 Y118.237 E0.00758
G1 X120.632 Y118.237 E0.00944
G1 X97.070 Y94.675 E1.05395
G1 X97.070 Y95.213 E0.01702
G1 X120.094 Y118.237 E1.02989
G1 X119.556 Y118.237 E0.01702
G1 X97.070 Y95.751 E1.00582
G1 X97.070 Y96.289 E0.01702
G1 X119.018 Y118.237 E0.98176
G1 X118.480 Y118.237 E0.01702
G1 X97.070 Y96.827 E0.95770
G1 X97.070 Y97.365 E0.01702
G1 X111.296 Y111.591 E0.63634
M73 P2 R81
M73 Q2 S81
G1 X110.023 Y110.856 E0.04649
G1 X97.070 Y97.903 E0.57941
G1 X97.070 Y98.440 E0.01702
G1 X108.933 Y110.304 E0.53065
G1 X108.592 Y110.501 E0.01246
G1 X97.070 Y98.978 E0.51540
G1 X97.070 Y99.516 E0.01702
G1 X108.251 Y110.697 E0.50014
G1 X107.910 Y110.894 E0.01246
G1 X97.070 Y100.054 E0.48489
G1 X97.070 Y100.592 E0.01702
G1 X107.569 Y111.091 E0.46963
G1 X107.228 Y111.288 E0.01246
G1 X97.070 Y101.130 E0.45438
G1 X97.070 Y101.668 E0.01702
G1 X106.887 Y111.485 E0.43912
G1 X106.546 Y111.682 E0.01246
G1 X97.070 Y102.206 E0.42387
G1 X97.070 Y102.744 E0.01702
G1 X106.205 Y111.879 E0.40861
G1 X105.864 Y112.076 E0.01246
G1 X97.070 Y103.282 E0.39335
G1 X97.070 Y103.820 E0.01702
G1 X105.523 Y112.273 E0.37810
G1 X105.182 Y112.470 E0.01246
G1 X97.070 Y104.358 E0.36284
G1 X97.070 Y104.896 E0.01702
G1 X105.180 Y113.006 E0.36278
G1 X105.180 Y113.544 E0.01702
G1 X97.070 Y105.434 E0.36278
G1 X97.070 Y105.972 E0.01702
G1 X105.180 Y114.082 E0.36278
G1 X105.180 Y114.620 E0.01702
G1 X97.070 Y106.510 E0.36278
G1 X97.070 Y107.048 E0.01702
G1 X105.180 Y115.158 E0.36278
G1 X105.180 Y115.696 E0.01702
G1 X97.070 Y107.586 E0.36278
G1 X97.070 Y108.124 E0.01702
G1 X105.350 Y116.404 E0.37037
;WIPE_START
G1 F8640.000
G1 X103.022 Y114.076 E-0.76000
;WIPE_END
G1 E-0.04000 F2100.000
G1 Z0.600 F10800.000
G1 X106.248 Y117.302
G1 Z0.200
G1 E0.80000 F2100.000
G1 F1200.000
G1 X107.183 Y118.237 E0.04181
G1 X106.645 Y118.237 E0.01702
G1 X97.070 Y108.662 E0.42830
G1 X97.070 Y109.200 E0.01702
G1 X106.107 Y118.237 E0.40424
G1 X105.569 Y118.237 E0.01702
G1 X97.070 Y109.738 E0.38018
G1 X97.070 Y110.275 E0.01702
G1 X105.031 Y118.237 E0.35611
G1 X104.493 Y118.237 E0.01702
G1 X97.070 Y110.813 E0.33205
G1 X97.070 Y111.351 E0.01702
G1 X103.955 Y118.237 E0.30799
G1 X103.417 Y118.237 E0.01702
G1 X97.070 Y111.889 E0.28392
G1 X97.070 Y112.427 E0.01702
G1 X102.879 Y118.237 E0.25986
G1 X102.341 Y118.237 E0.01702
G1 X97.070 Y112.965 E0.23580
G1 X97.070 Y113.503 E0.01702
G1 X101.803 Y118.237 E0.21173
G1 X101.265 Y118.237 E0.01702
G1 X97.070 Y114.041 E0.18767
G1 X97.070 Y114.579 E0.01702
G1 X100.727 Y118.237 E0.16361
G1 X100.189 Y118.237 E0.01702
G1 X97.070 Y115.117 E0.13954
G1 X97.070 Y115.655 E0.01702
G1 X99.651 Y118.237 E0.11548
G1 X99.114 Y118.237 E0.01702
G1 X97.070 Y116.193 E0.09142
G1 X97.070 Y116.731 E0.01702
G1 X98.576 Y118.237 E0.06735
G1 X98.038 Y118.237 E0.01702
G1 X97.070 Y117.269 E0.04329
G1 X97.070 Y117.807 E0.01702
G1 X97.669 Y118.406 E0.02682
;WIPE_START
G1 F8640.000
G1 X97.070 Y117.807 E-0.19576
G1 X97.070 Y117.269 E-0.12422
G1 X98.038 Y118.237 E-0.31601
G1 X98.575 Y118.237 E-0.12401
;WIPE_END
G1 E-0.04000 F2100.000
G1 Z0.600 F10800.000
G1 X112.650 Y112.945
G1 Z0.200
G1 E0.80000 F2100.000
G1 F1200.000
G1 X117.942 Y118.237 E0.23671
G1 X117.404 Y118.237 E0.01702
G1 X112.820 Y113.653 E0.20505
G1 X112.820 Y114.190 E0.01702
G1 X116.866 Y118.237 E0.18099
G1 X116.328 Y118.237 E0.01702
G1 X112.820 Y114.728 E0.15693
G1 X112.820 Y115.266 E0.01702
G1 X115.790 Y118.237 E0.13286
G1 X115.252 Y118.237 E0.01702
G1 X112.820 Y115.804 E0.10880
G1 X112.820 Y116.342 E0.01702
G1 X114.714 Y118.237 E0.08474
G1 X114.176 Y118.237 E0.01702
G1 X112.820 Y116.880 E0.06067
G1 X112.479 Y117.078 E0.01245
G1 X113.638 Y118.237 E0.05184
G1 X113.100 Y118.237 E0.01702
G1 X112.138 Y117.275 E0.04303
G1 X111.797 Y117.472 E0.01246
G1 X112.562 Y118.237 E0.03422
G1 X112.024 Y118.237 E0.01702
G1 X111.456 Y117.668 E0.02541
G1 X111.115 Y117.865 E0.01246
G1 X111.487 Y118.237 E0.01661
G1 X110.949 Y118.237 E0.01702
G1 X110.650 Y117.938 E0.01336
;WIPE_START
G1 F8640.000
G1 X110.949 Y118.237 E-0.09750
G1 X111.487 Y118.237 E-0.12422
G1 X111.115 Y117.865 E-0.12123
G1 X111.456 Y117.668 E-0.09093
G1 X112.024 Y118.237 E-0.18553
G1 X112.562 Y118.237 E-0.12422
G1 X112.512 Y118.187 E-0.01637
;WIPE_END
G1 E-0.04000 F2100.000
G1 Z0.600 F10800.000
G1 X109.584 Y118.619
G1 Z0.200
G1 E0.80000 F2100.000
;TYPE:Gap fill
;WIDTH:0.220426
G1 F1200.000
G1 X108.416 Y118.619 E0.01723
; stop printing object CableGuideBearingCover.stl id:1 copy 0
; printing object CableGuide.stl id:0 copy 0
;WIPE_START
G1 F8640.000
G1 X109.584 Y118.619 E-0.26955
;WIPE_END
G1 E-0.53045 F2100.000
G1 Z0.600 F10800.000
G1 X138.700 Y109.645
G1 Z0.200
G1 E0.80000 F2100.000
;TYPE:Perimeter
;WIDTH:0.42
G1 F1200.000
G1 X138.633 Y109.325 E0.01022
G1 X138.613 Y109.021 E0.00956
G1 X138.633 Y108.677 E0.01079
G1 X138.700 Y108.355 E0.01031
G1 X138.809 Y108.048 E0.01022
G1 X138.959 Y107.759 E0.01022
G1 X139.147 Y107.492 E0.01022
G1 X139.369 Y107.254 E0.01022
G1 X139.622 Y107.048 E0.01022
G1 X139.901 Y106.879 E0.01022
G1 X140.200 Y106.749 E0.01022
G1 X140.494 Y106.667 E0.00956
G1 X140.834 Y106.617 E0.01079
G1 X141.163 Y106.617 E0.01031
G1 X141.486 Y106.661 E0.01022
G1 X141.800 Y106.749 E0.01022
G1 X142.099 Y106.879 E0.01022
G1 X142.378 Y107.048 E0.01022
G1 X142.631 Y107.254 E0.01022
G1 X142.853 Y107.492 E0.01022
G1 X143.041 Y107.759 E0.01022
G1 X143.191 Y108.048 E0.01022
G1 X143.300 Y108.355 E0.01022
G1 X143.367 Y108.675 E0.01022
G1 X143.389 Y109.000 E0.01022
G1 X143.367 Y109.325 E0.01022
G1 X143.300 Y109.645 E0.01022
G1 X143.191 Y109.952 E0.01022
G1 X143.041 Y110.241 E0.01022
G1 X142.853 Y110.508 E0.01022
G1 X142.631 Y110.746 E0.01022
G1 X142.378 Y110.952 E0.01022
G1 X142.099 Y111.121 E0.01022
G1 X141.800 Y111.251 E0.01022
G1 X141.486 Y111.339 E0.01022
G1 X141.163 Y111.383 E0.01022
G1 X140.837 Y111.383 E0.01022
G1 X140.514 Y111.339 E0.01022
G1 X140.200 Y111.251 E0.01022
G1 X139.901 Y111.121 E0.01022
G1 X139.622 Y110.952 E0.01022
G1 X139.369 Y110.746 E0.01022
G1 X139.147 Y110.508 E0.01022
G1 X138.959 Y110.241 E0.01022
G1 X138.809 Y109.952 E0.01022
G1 X138.720 Y109.701 E0.00834
G1 X139.075 Y109.575 F10800.000
;TYPE:External perimeter
G1 F1200.000
G1 X139.008 Y109.274 E0.00967
G1 X138.990 Y109.019 E0.00800
G1 X139.008 Y108.727 E0.00918
G1 X139.064 Y108.457 E0.00864
G1 X139.156 Y108.199 E0.00861
G1 X139.282 Y107.955 E0.00861
G1 X139.440 Y107.731 E0.00861
G1 X139.627 Y107.530 E0.00861
