; generated by PrusaSlicer 2.3.0+win64 on 2021-03-22 at 03:57:53 UTC

; 

; external perimeters extrusion width = 0.45mm
; perimeters extrusion width = 0.45mm
; infill extrusion width = 0.45mm
; solid infill extrusion width = 0.45mm
; top infill extrusion width = 0.40mm
; first layer extrusion width = 0.42mm

M73 P0 R51
M73 Q0 S52
M201 X1000 Y1000 Z200 E5000 ; sets maximum accelerations, mm/sec^2
M203 X200 Y200 Z12 E120 ; sets maximum feedrates, mm/sec
M204 P1250 R1250 T1250 ; sets acceleration (P, T) and retract acceleration (R), mm/sec^2
M205 X8.00 Y8.00 Z0.40 E4.50 ; sets the jerk limits, mm/sec
M205 S0 T0 ; sets the minimum extruding and travel feed rate, mm/sec
M107
;TYPE:Custom
M862.3 P "MK3SMMU2S" ; printer model check
M862.1 P0.4 ; nozzle diameter check
M115 U3.9.3 ; tell printer latest fw version
G90 ; use absolute coordinates
M83 ; extruder relative mode
M104 S215 ; set extruder temp
M140 S60 ; set bed temp
Tx
M190 S60 ; wait for bed temp
M109 S215 ; wait for extruder temp
G28 W ; home all without mesh bed level
G80 ; mesh bed leveling

;go outside print area
G1 Y-3.0 F1000.0
G1 Z0.4 F1000.0
; select extruder
Tc
; purge line
G1 X55.0 F2000.0
G1 Z0.3 F1000.0
G92 E0.0
G1 X240.0 E25.0 F2200.0
M73 Q0 S51
G1 Y-2.0 F1000.0
G1 X55.0 E25 F1400.0
G1 Z0.20 F1000.0
G1 X5.0 E4.0 F1000.0

M221 S95
G92 E0.0

; Don't change E values below. Excessive value can damage the printer.

M907 E538 ; set extruder motor current
G21 ; set units to millimeters
G90 ; use absolute coordinates
M83 ; use relative distances for extrusion
M900 K0.05 ; Filament gcode LA 1.5
M900 K30 ; Filament gcode LA 1.0
;LAYER_CHANGE
;Z:0.2
;HEIGHT:0.2
;BEFORE_LAYER_CHANGE
G92 E0.0
;0.2


G1 E-0.80000 F2100.000
G1 Z0.400 F10800.000
;AFTER_LAYER_CHANGE
;0.2
G1 X112.102 Y94.308
G1 Z0.200
G1 E0.80000 F2100.000
M204 S1000
;TYPE:Skirt
;WIDTH:0.42
G1 F1200.000
G1 X112.994 Y93.314 E0.04188
G1 X114.332 Y92.082 E0.05703
G1 X115.425 Y91.252 E0.04304
G1 X116.991 Y90.284 E0.05772
G1 X118.641 Y89.500 E0.05728
G1 X119.931 Y89.031 E0.04304
G1 X121.714 Y88.571 E0.05772
G1 X123.522 Y88.312 E0.05729
G1 X124.877 Y88.246 E0.04252
G1 X126.673 Y88.330 E0.05639
G1 X128.028 Y88.522 E0.04291
G1 X129.818 Y88.954 E0.05772
G1 X131.536 Y89.574 E0.05728
G1 X132.774 Y90.159 E0.04291
G1 X134.355 Y91.101 E0.05772
G1 X135.813 Y92.203 E0.05729
G1 X136.795 Y93.102 E0.04176
G1 X138.018 Y94.454 E0.05715
G1 X138.837 Y95.555 E0.04304
G1 X139.791 Y97.130 E0.05772
G1 X140.558 Y98.783 E0.05715
G1 X141.014 Y100.078 E0.04304
G1 X141.458 Y101.865 E0.05772
G1 X141.701 Y103.675 E0.05728
G1 X141.754 Y105.002 E0.04163
G1 X141.654 Y106.826 E0.05728
G1 X141.449 Y108.182 E0.04300
G1 X141.000 Y109.969 E0.05775
G1 X140.365 Y111.677 E0.05716
G1 X139.767 Y112.913 E0.04304
G1 X138.810 Y114.486 E0.05772
G1 X137.695 Y115.933 E0.05728
G1 X136.790 Y116.904 E0.04162
G1 X135.427 Y118.114 E0.05716
G1 X134.352 Y118.901 E0.04175
G1 X132.787 Y119.834 E0.05716
G1 X131.546 Y120.422 E0.04303
G1 X129.815 Y121.047 E0.05773
G1 X128.043 Y121.475 E0.05715
G1 X126.684 Y121.669 E0.04304
G1 X124.883 Y121.754 E0.05651
G1 X123.533 Y121.689 E0.04240
G1 X121.710 Y121.428 E0.05772
G1 X119.941 Y120.972 E0.05728
G1 X118.655 Y120.506 E0.04291
G1 X117.040 Y119.742 E0.05600
G1 X115.861 Y119.042 E0.04300
G1 X114.377 Y117.956 E0.05763
G1 X113.030 Y116.722 E0.05728
G1 X112.111 Y115.703 E0.04304
G1 X111.016 Y114.228 E0.05759
G1 X110.095 Y112.650 E0.05728
G1 X109.536 Y111.446 E0.04162
G1 X108.927 Y109.728 E0.05716
G1 X108.602 Y108.436 E0.04176
G1 X108.326 Y106.631 E0.05727
G1 X108.248 Y105.250 E0.04335
G1 X108.320 Y103.425 E0.05728
G1 X108.590 Y101.622 E0.05716
G1 X108.921 Y100.294 E0.04291
G1 X109.515 Y98.605 E0.05613
G1 X110.088 Y97.363 E0.04291
G1 X111.014 Y95.776 E0.05759
G1 X112.066 Y94.356 E0.05540
G1 X112.368 Y94.581 F10800.000
G1 F1200.000
G1 X113.265 Y93.577 E0.04220
G1 X114.576 Y92.369 E0.05589
G1 X115.636 Y91.564 E0.04174
G1 X117.172 Y90.615 E0.05662
G1 X118.789 Y89.847 E0.05613
G1 X120.041 Y89.392 E0.04174
G1 X121.785 Y88.942 E0.05649
G1 X123.561 Y88.687 E0.05625
G1 X124.876 Y88.624 E0.04126
G1 X126.637 Y88.705 E0.05529
G1 X127.955 Y88.892 E0.04175
G1 X129.711 Y89.315 E0.05662
G1 X131.394 Y89.923 E0.05612
G1 X132.598 Y90.492 E0.04174
G1 X134.146 Y91.415 E0.05650
G1 X135.574 Y92.494 E0.05613
G1 X136.528 Y93.367 E0.04055
G1 X137.728 Y94.695 E0.05613
G1 X138.523 Y95.763 E0.04174
G1 X139.458 Y97.308 E0.05662
G1 X140.210 Y98.929 E0.05601
G1 X140.654 Y100.188 E0.04186
G1 X141.088 Y101.937 E0.05650
G1 X141.326 Y103.711 E0.05613
G1 X141.377 Y105.003 E0.04055
G1 X141.279 Y106.790 E0.05613
G1 X141.080 Y108.106 E0.04171
G1 X140.640 Y109.858 E0.05664
G1 X140.017 Y111.532 E0.05601
G1 X139.435 Y112.734 E0.04186
G1 X138.499 Y114.273 E0.05650
G1 X137.406 Y115.691 E0.05613
G1 X136.526 Y116.634 E0.04043
G1 X135.187 Y117.822 E0.05613
G1 X134.141 Y118.589 E0.04067
G1 X132.606 Y119.503 E0.05601
G1 X131.403 Y120.073 E0.04174
G1 X129.705 Y120.687 E0.05662
G1 X127.969 Y121.105 E0.05601
G1 X126.651 Y121.293 E0.04175
G1 X124.881 Y121.376 E0.05553
G1 X123.571 Y121.314 E0.04115
G1 X121.783 Y121.058 E0.05662
G1 X120.050 Y120.611 E0.05613
G1 X118.802 Y120.159 E0.04162
G1 X117.214 Y119.408 E0.05505
G1 X116.071 Y118.729 E0.04169
G1 X114.616 Y117.664 E0.05655
G1 X113.298 Y116.457 E0.05600
G1 X112.406 Y115.469 E0.04174
G1 X111.330 Y114.019 E0.05662
G1 X110.428 Y112.473 E0.05613
G1 X109.883 Y111.300 E0.04055
G1 X109.287 Y109.616 E0.05601
G1 X108.971 Y108.360 E0.04061
G1 X108.701 Y106.592 E0.05608
G1 X108.625 Y105.250 E0.04214
G1 X108.695 Y103.463 E0.05609
G1 X108.961 Y101.692 E0.05614
G1 X109.281 Y100.404 E0.04161
G1 X109.864 Y98.748 E0.05506
G1 X110.422 Y97.539 E0.04174
G1 X111.329 Y95.982 E0.05650
G1 X112.333 Y94.629 E0.05282
; printing object DestinationSpoolHolder.stl id:0 copy 0
;WIPE_START
G1 F8640.000
G1 X113.265 Y93.577 E-0.32458
G1 X114.576 Y92.369 E-0.41160
G1 X114.658 Y92.307 E-0.02382
;WIPE_END
G1 E-0.04000 F2100.000
G1 Z0.600 F10800.000
G1 X123.204 Y103.422
G1 Z0.200
G1 E0.80000 F2100.000
;TYPE:Perimeter
G1 F1200.000
G1 X123.576 Y103.080 E0.01583
G1 X124.016 Y102.823 E0.01598
G1 X124.312 Y102.712 E0.00993
G1 X124.815 Y102.617 E0.01603
G1 X125.339 Y102.634 E0.01644
G1 X125.814 Y102.754 E0.01537
G1 X126.103 Y102.881 E0.00988
G1 X126.528 Y103.162 E0.01598
G1 X126.880 Y103.523 E0.01583
G1 X127.157 Y103.969 E0.01644
G1 X127.325 Y104.452 E0.01603
G1 X127.377 Y104.764 E0.00993
G1 X127.375 Y105.273 E0.01598
G1 X127.268 Y105.752 E0.01537
G1 X127.149 Y106.044 E0.00988
G1 X126.879 Y106.478 E0.01603
G1 X126.510 Y106.853 E0.01649
G1 X126.069 Y107.138 E0.01649
G1 X125.577 Y107.320 E0.01644
G1 X125.091 Y107.387 E0.01537
G1 X124.776 Y107.378 E0.00988
G1 X124.275 Y107.278 E0.01603
M73 Q1 S51
G1 X123.796 Y107.065 E0.01644
G1 X123.401 Y106.775 E0.01537
G1 X123.181 Y106.549 E0.00988
G1 X122.892 Y106.127 E0.01603
G1 X122.696 Y105.639 E0.01649
G1 X122.612 Y105.120 E0.01649
G1 X122.644 Y104.596 E0.01644
M73 P1 R51
G1 X122.777 Y104.125 E0.01537
G1 X122.912 Y103.840 E0.00988
G1 X123.170 Y103.471 E0.01410
G1 X123.479 Y103.688 F10800.000
;TYPE:External perimeter
G1 F1200.000
G1 X123.801 Y103.385 E0.01387
G1 X124.178 Y103.165 E0.01369
G1 X124.414 Y103.077 E0.00791
G1 X124.844 Y102.995 E0.01371
G1 X125.286 Y103.009 E0.01386
G1 X125.691 Y103.112 E0.01311
G1 X125.922 Y103.213 E0.00789
G1 X126.286 Y103.454 E0.01369
G1 X126.581 Y103.757 E0.01328
G1 X126.815 Y104.133 E0.01386
G1 X126.959 Y104.545 E0.01371
G1 X127.000 Y104.794 E0.00791
G1 X126.998 Y105.231 E0.01369
G1 X126.906 Y105.639 E0.01311
G1 X126.812 Y105.872 E0.00789
G1 X126.581 Y106.243 E0.01371
G1 X126.271 Y106.559 E0.01387
G1 X125.899 Y106.799 E0.01387
G1 X125.484 Y106.952 E0.01386
G1 X125.070 Y107.009 E0.01311
G1 X124.819 Y107.002 E0.00789
G1 X124.390 Y106.916 E0.01371
G1 X123.986 Y106.737 E0.01386
G1 X123.649 Y106.489 E0.01311
G1 X123.474 Y106.309 E0.00789
G1 X123.226 Y105.948 E0.01371
G1 X123.062 Y105.538 E0.01387
G1 X122.991 Y105.101 E0.01387
G1 X123.018 Y104.660 E0.01386
G1 X123.132 Y104.257 E0.01311
G1 X123.239 Y104.030 E0.00789
G1 X123.444 Y103.737 E0.01121
G1 X123.353 Y103.308 F10800.000
;WIPE_START
G1 F8640.000
G1 X123.801 Y103.385 E-0.11571
G1 X124.178 Y103.165 E-0.10082
G1 X124.414 Y103.077 E-0.05824
G1 X124.844 Y102.995 E-0.10095
G1 X125.286 Y103.009 E-0.10205
G1 X125.691 Y103.112 E-0.09655
G1 X125.922 Y103.213 E-0.05812
G1 X126.286 Y103.454 E-0.10082
G1 X126.367 Y103.537 E-0.02673
;WIPE_END
G1 E-0.04000 F2100.000
G1 Z0.600 F10800.000
G1 X114.586 Y96.884
G1 Z0.200
G1 E0.80000 F2100.000
;TYPE:Perimeter
G1 F1200.000
G1 X114.866 Y96.522 E0.01436
G1 X115.185 Y96.155 E0.01524
G1 X115.878 Y95.442 E0.03118
G1 X116.630 Y94.776 E0.03150
G1 X117.012 Y94.476 E0.01524
G1 X117.831 Y93.902 E0.03135
G1 X118.248 Y93.643 E0.01540
G1 X119.121 Y93.167 E0.03117
G1 X120.037 Y92.755 E0.03150
G1 X120.491 Y92.580 E0.01524
G1 X121.438 Y92.277 E0.03118
G1 X122.415 Y92.043 E0.03150
G1 X122.893 Y91.956 E0.01524
G1 X123.886 Y91.834 E0.03135
G1 X124.378 Y91.802 E0.01546
G1 X125.124 Y91.790 E0.02341
G1 X125.876 Y91.816 E0.02357
G1 X126.357 Y91.857 E0.01514
G1 X127.352 Y91.998 E0.03151
G1 X127.839 Y92.096 E0.01557
G1 X128.317 Y92.210 E0.01541
G1 X129.269 Y92.496 E0.03118
G1 X130.207 Y92.857 E0.03150
G1 X130.650 Y93.056 E0.01524
G1 X131.532 Y93.515 E0.03118
G1 X132.381 Y94.042 E0.03133
G1 X133.185 Y94.628 E0.03117
G1 X133.565 Y94.939 E0.01540
G1 X134.297 Y95.612 E0.03117
G1 X134.983 Y96.345 E0.03150
G1 X135.295 Y96.718 E0.01524
G1 X135.892 Y97.520 E0.03135
G1 X136.162 Y97.930 E0.01540
G1 X136.662 Y98.790 E0.03117
G1 X137.100 Y99.694 E0.03150
G1 X137.287 Y100.143 E0.01524
G1 X137.618 Y101.081 E0.03118
G1 X137.878 Y102.045 E0.03134
G1 X137.979 Y102.526 E0.01540
G1 X138.129 Y103.515 E0.03135
G1 X138.175 Y103.999 E0.01524
G1 X138.212 Y105.003 E0.03150
G1 X138.175 Y105.996 E0.03118
G1 X138.129 Y106.480 E0.01524
G1 X137.979 Y107.473 E0.03149
G1 X137.756 Y108.442 E0.03118
G1 X137.620 Y108.914 E0.01540
G1 X137.287 Y109.857 E0.03135
G1 X137.100 Y110.306 E0.01524
G1 X136.662 Y111.210 E0.03150
G1 X136.162 Y112.070 E0.03118
G1 X135.603 Y112.884 E0.03098
G1 X134.980 Y113.659 E0.03117
G1 X134.297 Y114.388 E0.03133
G1 X133.564 Y115.061 E0.03118
G1 X133.189 Y115.369 E0.01524
G1 X132.373 Y115.964 E0.03167
G1 X131.964 Y116.228 E0.01524
G1 X131.095 Y116.723 E0.03135
G1 X130.655 Y116.941 E0.01540
G1 X129.736 Y117.335 E0.03135
G1 X129.274 Y117.502 E0.01540
G1 X128.322 Y117.788 E0.03117
G1 X127.341 Y118.004 E0.03150
G1 X126.861 Y118.081 E0.01524
G1 X125.872 Y118.184 E0.03118
G1 X124.873 Y118.212 E0.03133
G1 X123.880 Y118.165 E0.03118
G1 X123.391 Y118.114 E0.01541
G1 X122.899 Y118.045 E0.01558
G1 X121.924 Y117.849 E0.03117
G1 X120.962 Y117.580 E0.03133
G1 X120.027 Y117.241 E0.03118
G1 X119.580 Y117.050 E0.01524
G1 X118.681 Y116.603 E0.03150
G1 X117.826 Y116.095 E0.03118
G1 X117.422 Y115.824 E0.01524
G1 X116.618 Y115.213 E0.03167
G1 X116.248 Y114.898 E0.01524
G1 X115.528 Y114.212 E0.03118
G1 X114.859 Y113.470 E0.03133
G1 X114.248 Y112.679 E0.03134
G1 X113.973 Y112.278 E0.01524
G1 X113.454 Y111.424 E0.03135
G1 X113.225 Y110.995 E0.01524
G1 X112.804 Y110.082 E0.03150
G1 X112.456 Y109.151 E0.03118
G1 X112.311 Y108.682 E0.01541
G1 X112.181 Y108.202 E0.01558
G1 X111.977 Y107.229 E0.03117
G1 X111.846 Y106.238 E0.03133
G1 X111.790 Y105.246 E0.03118
G1 X111.790 Y104.757 E0.01532
G1 X111.846 Y103.757 E0.03142
G1 X111.977 Y102.771 E0.03118
G1 X112.180 Y101.804 E0.03098
G1 X112.457 Y100.849 E0.03118
G1 X112.806 Y99.913 E0.03133
G1 X113.223 Y99.010 E0.03117
G1 X113.454 Y98.576 E0.01540
G1 X113.973 Y97.722 E0.03135
G1 X114.248 Y97.321 E0.01524
G1 X114.549 Y96.932 E0.01543
G1 X114.251 Y96.701 F10800.000
;TYPE:External perimeter
G1 F1200.000
G1 X114.574 Y96.283 E0.01657
G1 X114.907 Y95.900 E0.01591
G1 X115.617 Y95.169 E0.03195
G1 X116.388 Y94.487 E0.03228
G1 X116.787 Y94.173 E0.01591
G1 X117.623 Y93.587 E0.03202
G1 X118.059 Y93.317 E0.01607
G1 X118.954 Y92.829 E0.03195
G1 X119.892 Y92.407 E0.03228
G1 X120.366 Y92.225 E0.01591
G1 X121.336 Y91.913 E0.03195
G1 X122.338 Y91.673 E0.03228
G1 X122.837 Y91.583 E0.01591
G1 X123.850 Y91.459 E0.03202
G1 X124.362 Y91.425 E0.01609
G1 X125.128 Y91.413 E0.02400
G1 X125.898 Y91.440 E0.02417
G1 X126.399 Y91.482 E0.01576
G1 X127.415 Y91.626 E0.03218
G1 X128.415 Y91.846 E0.03209
G1 X129.391 Y92.139 E0.03195
G1 X130.352 Y92.508 E0.03228
G1 X130.815 Y92.717 E0.01591
G1 X131.719 Y93.187 E0.03195
G1 X132.592 Y93.729 E0.03222
G1 X133.415 Y94.329 E0.03195
G1 X133.812 Y94.654 E0.01607
G1 X134.562 Y95.344 E0.03195
G1 X135.266 Y96.095 E0.03228
G1 X135.591 Y96.485 E0.01591
G1 X136.201 Y97.304 E0.03202
G1 X136.483 Y97.732 E0.01607
G1 X136.995 Y98.613 E0.03195
G1 X137.444 Y99.539 E0.03228
G1 X137.640 Y100.007 E0.01591
G1 X137.978 Y100.969 E0.03196
G1 X138.245 Y101.958 E0.03212
G1 X138.350 Y102.459 E0.01607
G1 X138.503 Y103.469 E0.03202
G1 X138.551 Y103.974 E0.01591
G1 X138.590 Y105.003 E0.03228
G1 X138.551 Y106.021 E0.03196
G1 X138.504 Y106.526 E0.01591
G1 X138.350 Y107.544 E0.03227
G1 X138.121 Y108.537 E0.03196
G1 X137.979 Y109.030 E0.01607
G1 X137.640 Y109.993 E0.03202
G1 X137.444 Y110.461 E0.01591
G1 X136.995 Y111.387 E0.03228
G1 X136.483 Y112.268 E0.03195
G1 X135.903 Y113.112 E0.03210
G1 X135.265 Y113.906 E0.03195
G1 X134.562 Y114.656 E0.03222
G1 X133.812 Y115.346 E0.03195
G1 X133.419 Y115.668 E0.01591
G1 X132.586 Y116.275 E0.03234
G1 X132.160 Y116.551 E0.01591
G1 X131.273 Y117.056 E0.03202
G1 X130.813 Y117.284 E0.01607
G1 X129.875 Y117.685 E0.03201
G1 X129.393 Y117.860 E0.01607
G1 X128.417 Y118.153 E0.03195
G1 X127.411 Y118.374 E0.03228
G1 X126.910 Y118.455 E0.01591
G1 X125.897 Y118.560 E0.03195
G1 X124.870 Y118.589 E0.03222
G1 X123.852 Y118.541 E0.03195
G1 X123.345 Y118.489 E0.01597
G1 X122.836 Y118.416 E0.01613
G1 X121.836 Y118.216 E0.03195
G1 X120.847 Y117.940 E0.03222
G1 X119.889 Y117.592 E0.03195
G1 X119.422 Y117.392 E0.01591
G1 X118.500 Y116.935 E0.03228
G1 X117.624 Y116.414 E0.03195
G1 X117.203 Y116.131 E0.01591
G1 X116.381 Y115.507 E0.03234
G1 X115.995 Y115.178 E0.01591
G1 X115.258 Y114.475 E0.03195
G1 X114.570 Y113.712 E0.03222
G1 X113.943 Y112.901 E0.03212
G1 X113.656 Y112.483 E0.01591
G1 X113.126 Y111.610 E0.03202
G1 X112.888 Y111.162 E0.01591
G1 X112.456 Y110.228 E0.03228
G1 X112.099 Y109.273 E0.03195
G1 X111.948 Y108.787 E0.01597
G1 X111.814 Y108.290 E0.01613
G1 X111.605 Y107.292 E0.03195
G1 X111.470 Y106.274 E0.03222
G1 X111.413 Y105.256 E0.03195
G1 X111.412 Y104.746 E0.01599
G1 X111.471 Y103.721 E0.03220
G1 X111.604 Y102.711 E0.03195
G1 X111.815 Y101.709 E0.03209
G1 X112.098 Y100.730 E0.03195
G1 X112.458 Y99.767 E0.03222
G1 X112.885 Y98.842 E0.03195
G1 X113.126 Y98.390 E0.01607
G1 X113.656 Y97.517 E0.03202
G1 X113.943 Y97.099 E0.01591
G1 X114.214 Y96.748 E0.01389
G1 X114.648 Y96.751 F10800.000
;WIPE_START
G1 F8640.000
G1 X114.574 Y96.283 E-0.13590
G1 X114.907 Y95.900 E-0.11714
G1 X115.617 Y95.169 E-0.23532
G1 X116.388 Y94.487 E-0.23772
G1 X116.504 Y94.396 E-0.03391
;WIPE_END
G1 E-0.04000 F2100.000
G1 Z0.600 F10800.000
G1 X132.688 Y94.406
G1 Z0.200
G1 E0.80000 F2100.000
;TYPE:Solid infill
;WIDTH:0.423134
G1 F1200.000
G1 X134.128 Y95.846 E0.06439
G1 X134.771 Y96.533 E0.02974
G1 X135.073 Y96.893 E0.01486
G1 X135.660 Y97.683 E0.03111
G1 X136.057 Y98.312 E0.02352
G1 X131.692 Y93.947 E0.19516
G1 X131.392 Y93.761 E0.01116
G1 X130.511 Y93.304 E0.03138
G1 X136.678 Y99.471 E0.27571
G1 X136.842 Y99.810 E0.01193
G1 X137.083 Y100.413 E0.02053
G1 X129.593 Y92.924 E0.33486
G1 X129.178 Y92.764 E0.01408
G1 X128.775 Y92.643 E0.01328
G1 X137.366 Y101.234 E0.38412
G1 X137.565 Y101.971 E0.02411
G1 X128.031 Y92.437 E0.42625
G1 X127.342 Y92.286 E0.02231
G1 X137.713 Y102.656 E0.46367
G1 X137.809 Y103.290 E0.02027
G1 X126.712 Y92.193 E0.49614
G1 X126.100 Y92.119 E0.01948
G1 X137.881 Y103.900 E0.52673
G1 X137.909 Y104.466 E0.01790
G1 X125.531 Y92.087 E0.55345
G1 X124.981 Y92.075 E0.01738
G1 X137.929 Y105.023 E0.57889
G1 X137.909 Y105.541 E0.01639
G1 X124.452 Y92.084 E0.60169
G1 X123.944 Y92.114 E0.01607
G1 X137.885 Y106.055 E0.62332
G1 X137.834 Y106.542 E0.01546
G1 X123.464 Y92.171 E0.64250
G1 X122.985 Y92.230 E0.01525
G1 X137.763 Y107.009 E0.66075
