; generated by PrusaSlicer 2.3.0+win64 on 2021-03-23 at 16:02:43 UTC

; 

; external perimeters extrusion width = 0.45mm
; perimeters extrusion width = 0.45mm
; infill extrusion width = 0.45mm
; solid infill extrusion width = 0.45mm
; top infill extrusion width = 0.40mm
; support material extrusion width = 0.35mm
; first layer extrusion width = 0.42mm

M73 P0 R85
M73 Q0 S86
M201 X1000 Y1000 Z200 E5000 ; sets maximum accelerations, mm/sec^2
M203 X200 Y200 Z12 E120 ; sets maximum feedrates, mm/sec
M204 P1250 R1250 T1250 ; sets acceleration (P, T) and retract acceleration (R), mm/sec^2
M205 X8.00 Y8.00 Z0.40 E4.50 ; sets the jerk limits, mm/sec
M205 S0 T0 ; sets the minimum extruding and travel feed rate, mm/sec
M107
;TYPE:Custom
M862.3 P "MK3SMMU2S" ; printer model check
M862.1 P0.4 ; nozzle diameter check
M115 U3.9.3 ; tell printer latest fw version
G90 ; use absolute coordinates
M83 ; extruder relative mode
M104 S215 ; set extruder temp
M140 S60 ; set bed temp
Tx
M190 S60 ; wait for bed temp
M109 S215 ; wait for extruder temp
G28 W ; home all without mesh bed level
G80 ; mesh bed leveling

;go outside print area
G1 Y-3.0 F1000.0
G1 Z0.4 F1000.0
; select extruder
Tc
; purge line
G1 X55.0 F2000.0
G1 Z0.3 F1000.0
G92 E0.0
G1 X240.0 E25.0 F2200.0
G1 Y-2.0 F1000.0
G1 X55.0 E25 F1400.0
G1 Z0.20 F1000.0
G1 X5.0 E4.0 F1000.0

M221 S95
G92 E0.0

; Don't change E values below. Excessive value can damage the printer.

M907 E538 ; set extruder motor current
G21 ; set units to millimeters
G90 ; use absolute coordinates
M83 ; use relative distances for extrusion
M900 K0.05 ; Filament gcode LA 1.5
M900 K30 ; Filament gcode LA 1.0
;LAYER_CHANGE
;Z:0.2
;HEIGHT:0.2
;BEFORE_LAYER_CHANGE
G92 E0.0
;0.2


G1 E-0.80000 F2100.000
G1 Z0.400 F10800.000
;AFTER_LAYER_CHANGE
;0.2
G1 X72.193 Y79.277
G1 Z0.200
G1 E0.80000 F2100.000
M204 S1000
;TYPE:Skirt
;WIDTH:0.42
G1 F1200.000
G1 X72.692 Y78.957 E0.01858
G1 X130.771 Y51.268 E2.01741
G1 X131.267 Y51.097 E0.01645
G1 X131.793 Y51.040 E0.01657
G1 X181.200 Y51.216 E1.54913
M73 Q0 S85
G1 X181.969 Y51.404 E0.02484
G1 X182.632 Y51.832 E0.02473
G1 X184.882 Y54.355 E0.10602
G1 X185.225 Y54.889 E0.01989
G1 X185.391 Y55.379 E0.01621
G1 X185.447 Y55.889 E0.01609
G1 X185.446 Y154.356 E3.08737
G1 X185.284 Y155.143 E0.02520
G1 X184.871 Y155.828 E0.02508
G1 X182.392 Y158.185 E0.10723
G1 X181.809 Y158.569 E0.02190
G1 X180.878 Y158.790 E0.03001
G1 X168.752 Y158.960 E0.38024
G1 X143.843 Y158.960 E0.78101
G1 X131.484 Y158.771 E0.38753
G1 X68.442 Y147.195 E2.00969
G1 X67.828 Y146.962 E0.02060
G1 X67.302 Y146.569 E0.02060
G1 X65.113 Y144.104 E0.10338
G1 X64.775 Y143.575 E0.01965
G1 X64.614 Y143.108 E0.01550
G1 X64.553 Y142.614 E0.01562
G1 X64.567 Y131.599 E0.34537
G1 X71.363 Y80.775 E1.60772
G1 X71.512 Y80.214 E0.01823
G1 X71.792 Y79.708 E0.01811
G1 X72.152 Y79.321 E0.01658
; printing object ElectronicsPlate.stl id:0 copy 0
;WIPE_START
G1 F8640.000
G1 X72.692 Y78.957 E-0.15031
G1 X75.075 Y77.821 E-0.60969
;WIPE_END
G1 E-0.04000 F2100.000
G1 Z0.600 F10800.000
G1 X73.717 Y81.102
G1 Z0.200
G1 E0.80000 F2100.000
;TYPE:Support material
G1 F1200.000
G1 X73.717 Y92.376 E0.35349
G1 X74.471 Y92.413 E0.02368
G1 X74.471 Y81.271 E0.34935
G1 X75.226 Y81.271 E0.02365
G1 X75.226 Y92.451 E0.35053
G1 X75.929 Y92.486 E0.02209
G1 X75.980 Y91.981 E0.01592
G1 X75.980 Y81.271 E0.33578
M73 P0 R84
G1 X76.734 Y81.271 E0.02365
G1 X76.734 Y87.472 E0.19441
G1 X77.013 Y87.412 E0.00895
G1 X77.488 Y88.235 E0.02979
G1 X77.488 Y81.271 E0.21833
G1 X78.242 Y81.271 E0.02365
G1 X78.242 Y89.296 E0.25162
G1 X78.996 Y89.296 E0.02365
G1 X78.996 Y81.271 E0.25162
G1 X79.750 Y81.271 E0.02365
G1 X79.750 Y89.296 E0.25162
G1 X80.505 Y89.296 E0.02365
G1 X80.505 Y81.271 E0.25162
G1 X81.259 Y81.271 E0.02365
G1 X81.259 Y84.006 E0.08576
G1 X82.013 Y84.006 E0.02365
G1 X82.013 Y81.271 E0.08576
G1 X82.767 Y81.271 E0.02365
G1 X82.767 Y84.006 E0.08576
G1 X83.521 Y84.006 E0.02365
G1 X83.521 Y81.271 E0.08576
G1 X84.275 Y81.271 E0.02365
G1 X84.275 Y84.006 E0.08576
G1 X85.030 Y84.006 E0.02365
G1 X85.030 Y81.271 E0.08576
G1 X85.784 Y81.271 E0.02365
G1 X85.784 Y84.176 E0.09108
;WIPE_START
G1 F8640.000
G1 X85.784 Y81.271 E-0.67073
G1 X85.397 Y81.271 E-0.08927
;WIPE_END
G1 E-0.04000 F2100.000
G1 Z0.600 F10800.000
G1 X82.013 Y87.533
G1 Z0.200
G1 E0.80000 F2100.000
G1 F1200.000
G1 X82.013 Y86.726 E0.02530
G1 X81.259 Y85.420 E0.04729
G1 X81.259 Y88.839 E0.10721
;WIPE_START
G1 F8640.000
G1 X81.259 Y85.548 E-0.76000
;WIPE_END
G1 E-0.04000 F2100.000
G1 Z0.600 F10800.000
G1 X82.013 Y89.744
G1 Z0.200
G1 E0.80000 F2100.000
G1 F1200.000
G1 X82.013 Y92.296 E0.08003
G1 X82.531 Y92.296 E0.01624
G1 X82.767 Y91.887 E0.01481
G1 X82.767 Y89.914 E0.06189
G1 X83.521 Y89.914 E0.02365
G1 X83.521 Y90.920 E0.03157
;WIPE_START
G1 F8640.000
G1 X83.521 Y89.914 E-0.23250
G1 X82.767 Y89.914 E-0.17414
G1 X82.767 Y91.444 E-0.35336
;WIPE_END
G1 E-0.04000 F2100.000
G1 Z0.600 F10800.000
G1 X101.621 Y89.744
G1 Z0.200
G1 E0.80000 F2100.000
G1 F1200.000
G1 X101.621 Y94.122 E0.13729
G1 X102.375 Y94.122 E0.02365
G1 X102.375 Y89.914 E0.13197
G1 X103.129 Y89.914 E0.02365
G1 X103.129 Y94.122 E0.13197
G1 X103.884 Y94.122 E0.02365
G1 X103.884 Y89.914 E0.13197
G1 X104.638 Y89.914 E0.02365
G1 X104.638 Y94.122 E0.13197
G1 X105.392 Y94.122 E0.02365
G1 X105.392 Y90.578 E0.11113
G1 X106.146 Y93.092 E0.08229
G1 X106.146 Y94.292 E0.03763
;WIPE_START
G1 F8640.000
G1 X106.146 Y93.092 E-0.27710
G1 X105.545 Y91.089 E-0.48290
;WIPE_END
G1 E-0.04000 F2100.000
G1 Z0.600 F10800.000
G1 X109.917 Y87.596
G1 Z0.200
G1 E0.80000 F2100.000
G1 F1200.000
G1 X109.917 Y86.664 E0.02922
G1 X109.163 Y85.357 E0.04729
G1 X109.163 Y88.563 E0.10050
G1 X108.739 Y89.296 E0.02657
G1 X108.409 Y89.296 E0.01036
G1 X108.409 Y84.834 E0.13993
M73 P1 R84
M73 Q1 S85
G1 X107.654 Y84.834 E0.02365
G1 X107.654 Y89.296 E0.13993
G1 X106.900 Y89.296 E0.02365
G1 X106.900 Y84.834 E0.13993
G1 X106.146 Y84.834 E0.02365
G1 X106.146 Y89.296 E0.13993
G1 X106.041 Y89.296 E0.00329
G1 X105.392 Y88.172 E0.04071
G1 X105.392 Y85.409 E0.08665
;WIPE_START
G1 F8640.000
G1 X105.392 Y88.172 E-0.63810
G1 X105.656 Y88.629 E-0.12190
;WIPE_END
G1 E-0.04000 F2100.000
G1 Z0.600 F10800.000
G1 X109.163 Y81.634
G1 Z0.200
G1 E0.80000 F2100.000
G1 F1200.000
G1 X109.163 Y81.271 E0.01137
G1 X108.409 Y81.271 E0.02365
G1 X108.409 Y82.082 E0.02541
G1 X107.654 Y82.758 E0.03175
G1 X107.654 Y81.271 E0.04660
G1 X106.900 Y81.271 E0.02365
G1 X106.900 Y83.433 E0.06778
G1 X106.146 Y84.109 E0.03175
G1 X106.146 Y81.271 E0.08897
G1 X105.392 Y81.271 E0.02365
G1 X105.392 Y84.006 E0.08576
G1 X104.638 Y84.006 E0.02365
G1 X104.638 Y81.271 E0.08576
G1 X103.884 Y81.271 E0.02365
G1 X103.884 Y84.006 E0.08576
G1 X103.129 Y84.006 E0.02365
G1 X103.129 Y81.271 E0.08576
G1 X102.375 Y81.271 E0.02365
G1 X102.375 Y84.006 E0.08576
G1 X101.621 Y84.006 E0.02365
G1 X101.621 Y81.102 E0.09108
;WIPE_START
G1 F8640.000
G1 X101.621 Y84.006 E-0.67073
G1 X102.008 Y84.006 E-0.08927
;WIPE_END
G1 E-0.04000 F2100.000
G1 Z0.600 F10800.000
G1 X131.787 Y53.417
G1 Z0.200
G1 E0.80000 F2100.000
G1 F1200.000
G1 X131.787 Y61.135 E0.24201
G1 X132.542 Y60.460 E0.03175
G1 X132.542 Y53.586 E0.21550
G1 X133.296 Y53.586 E0.02365
G1 X133.296 Y59.784 E0.19432
G1 X134.050 Y59.108 E0.03175
G1 X134.050 Y53.586 E0.17313
G1 X134.804 Y53.586 E0.02365
G1 X134.804 Y58.433 E0.15195
G1 X135.558 Y57.757 E0.03175
G1 X135.558 Y53.586 E0.13076
G1 X136.312 Y53.586 E0.02365
G1 X136.312 Y56.209 E0.08224
G1 X137.067 Y56.209 E0.02365
G1 X137.067 Y53.586 E0.08224
G1 X137.821 Y53.586 E0.02365
G1 X137.821 Y56.209 E0.08224
G1 X138.575 Y56.209 E0.02365
G1 X138.575 Y53.586 E0.08224
G1 X139.329 Y53.586 E0.02365
G1 X139.329 Y56.586 E0.09406
G1 X140.083 Y56.586 E0.02365
G1 X140.083 Y53.586 E0.09406
G1 X140.837 Y53.586 E0.02365
G1 X140.837 Y56.586 E0.09406
G1 X141.592 Y56.586 E0.02365
G1 X141.592 Y53.586 E0.09406
G1 X142.346 Y53.586 E0.02365
G1 X142.346 Y56.586 E0.09406
G1 X143.100 Y56.586 E0.02365
G1 X143.100 Y53.586 E0.09406
G1 X143.854 Y53.586 E0.02365
G1 X143.854 Y56.756 E0.09939
;WIPE_START
G1 F8640.000
G1 X143.854 Y53.586 E-0.73190
G1 X143.732 Y53.586 E-0.02810
;WIPE_END
G1 E-0.04000 F2100.000
G1 Z0.600 F10800.000
G1 X138.691 Y56.760
G1 Z0.200
G1 E0.80000 F2100.000
;TYPE:Support material interface
;WIDTH:0.35
G1 F1200.000
G1 X138.691 Y56.551 E0.00532
G1 X138.184 Y56.551 E0.01295
G1 X138.184 Y56.621 E0.00179
G1 X137.677 Y56.661 E0.01299
G1 X137.677 Y56.551 E0.00280
G1 X137.170 Y56.551 E0.01295
G1 X137.170 Y56.779 E0.00580
G1 X136.958 Y56.846 E0.00569
G1 X136.663 Y56.980 E0.00826
G1 X136.663 Y56.413 E0.01447
;WIPE_START
G1 F8640.000
G1 X136.663 Y56.980 E-0.13087
G1 X136.958 Y56.846 E-0.07471
G1 X137.170 Y56.779 E-0.05147
G1 X137.170 Y56.551 E-0.05247
G1 X137.677 Y56.551 E-0.11709
G1 X137.677 Y56.661 E-0.02530
G1 X138.184 Y56.621 E-0.11744
G1 X138.184 Y56.551 E-0.01620
G1 X138.691 Y56.551 E-0.11709
G1 X138.691 Y56.760 E-0.04811
;WIPE_END
G1 E-0.04926 F2100.000
G1 Z0.600 F10800.000
G1 X136.663 Y58.091
G1 Z0.200
G1 E0.80000 F2100.000
G1 F1200.000
G1 X136.663 Y58.858 E0.01959
G1 X137.170 Y58.858 E0.01295
G1 X137.170 Y57.879 E0.02502
G1 X137.677 Y57.879 E0.01295
G1 X137.677 Y58.858 E0.02502
G1 X138.184 Y58.858 E0.01295
G1 X138.184 Y57.879 E0.02502
G1 X138.691 Y57.879 E0.01295
G1 X138.691 Y58.997 E0.02855
G1 X140.083 Y61.199 F10800.000
;TYPE:Support material
;WIDTH:0.42
G1 F1200.000
G1 X140.083 Y59.141 E0.06452
G1 X139.375 Y57.914 E0.04443
G1 X139.329 Y57.914 E0.00143
G1 X139.329 Y62.086 E0.13084
G1 X138.575 Y62.086 E0.02365
G1 X138.575 Y59.200 E0.09049
G1 X137.821 Y59.200 E0.02365
G1 X137.821 Y62.086 E0.09049
G1 X137.067 Y62.086 E0.02365
G1 X137.067 Y59.200 E0.09049
G1 X136.312 Y59.200 E0.02365
G1 X136.312 Y61.295 E0.06567
;WIPE_START
G1 F8640.000
G1 X136.312 Y59.200 E-0.48358
G1 X137.067 Y59.200 E-0.17414
G1 X137.067 Y59.643 E-0.10228
;WIPE_END
G1 E-0.04000 F2100.000
G1 Z0.600 F10800.000
G1 X137.821 Y65.256
G1 Z0.200
G1 E0.80000 F2100.000
G1 F1200.000
G1 X137.821 Y64.793 E0.01452
G1 X138.575 Y64.147 E0.03113
G1 X138.575 Y65.086 E0.02945
G1 X139.329 Y65.086 E0.02365
G1 X139.329 Y63.501 E0.04969
G1 X139.432 Y63.414 E0.00424
G1 X140.083 Y63.414 E0.02043
G1 X140.083 Y65.086 E0.05245
G1 X140.837 Y65.086 E0.02365
G1 X140.837 Y63.414 E0.05245
G1 X141.592 Y63.414 E0.02365
G1 X141.592 Y64.586 E0.03676
;WIPE_START
G1 F8640.000
G1 X141.592 Y63.414 E-0.27070
G1 X140.837 Y63.414 E-0.17414
G1 X140.837 Y64.778 E-0.31517
;WIPE_END
G1 E-0.04000 F2100.000
G1 Z0.600 F10800.000
G1 X134.804 Y90.330
G1 Z0.200
G1 E0.80000 F2100.000
G1 F1200.000
G1 X134.804 Y92.380 E0.06429
G1 X135.558 Y92.615 E0.02476
G1 X135.558 Y90.500 E0.06631
G1 X136.312 Y90.500 E0.02365
G1 X136.312 Y92.849 E0.07366
G1 X137.067 Y93.083 E0.02476
G1 X137.067 Y90.500 E0.08100
G1 X137.821 Y90.500 E0.02365
G1 X137.821 Y93.317 E0.08834
G1 X138.575 Y93.551 E0.02476
G1 X138.575 Y90.500 E0.09568
G1 X139.329 Y90.500 E0.02365
G1 X139.329 Y93.790 E0.10315
G1 X140.083 Y94.108 E0.02567
G1 X140.083 Y90.500 E0.11315
G1 X140.837 Y90.500 E0.02365
G1 X140.837 Y94.434 E0.12337
G1 X141.591 Y94.761 E0.02576
G1 X141.591 Y90.500 E0.13360
G1 X142.346 Y90.500 E0.02365
G1 X142.346 Y95.087 E0.14382
G1 X143.100 Y95.413 E0.02576
G1 X143.100 Y90.500 E0.15405
G1 X143.854 Y90.500 E0.02365
G1 X143.854 Y95.924 E0.17007
;WIPE_START
G1 F8640.000
G1 X143.854 Y92.632 E-0.76000
;WIPE_END
G1 E-0.04000 F2100.000
G1 Z0.600 F10800.000
G1 X140.083 Y98.199
G1 Z0.200
G1 E0.80000 F2100.000
G1 F1200.000
G1 X140.083 Y96.141 E0.06452
G1 X139.375 Y94.914 E0.04443
G1 X139.329 Y94.914 E0.00143
G1 X139.329 Y99.086 E0.13084
G1 X138.575 Y99.086 E0.02365
G1 X138.575 Y94.914 E0.13084
G1 X137.821 Y94.914 E0.02365
G1 X137.821 Y99.086 E0.13084
G1 X137.067 Y99.086 E0.02365
G1 X137.067 Y94.914 E0.13084
G1 X136.965 Y94.914 E0.00317
G1 X136.312 Y96.045 E0.04095
G1 X136.312 Y98.295 E0.07056
;WIPE_START
G1 F8640.000
G1 X136.312 Y96.045 E-0.51959
G1 X136.833 Y95.143 E-0.24041
;WIPE_END
G1 E-0.04000 F2100.000
G1 Z0.600 F10800.000
G1 X134.050 Y99.019
G1 Z0.200
G1 E0.80000 F2100.000
G1 F1200.000
G1 X134.050 Y100.376 E0.04253
;WIPE_START
G1 F8640.000
G1 X134.050 Y99.019 E-0.31324
;WIPE_END
G1 E-0.48676 F2100.000
G1 Z0.600 F10800.000
G1 X143.100 Y114.973
G1 Z0.200
G1 E0.80000 F2100.000
G1 F1200.000
G1 X143.100 Y114.587 E0.01211
G1 X142.346 Y114.913 E0.02576
G1 X142.346 Y115.940 E0.03220
G1 X141.591 Y117.247 E0.04729
G1 X141.591 Y115.055 E0.06873
;WIPE_START
G1 F8640.000
G1 X141.591 Y117.247 E-0.50612
G1 X142.141 Y116.294 E-0.25388
;WIPE_END
G1 E-0.04000 F2100.000
G1 Z0.600 F10800.000
G1 X140.083 Y114.199
G1 Z0.200
G1 E0.80000 F2100.000
G1 F1200.000
G1 X140.083 Y112.141 E0.06452
G1 X139.375 Y110.914 E0.04443
G1 X139.329 Y110.914 E0.00143
G1 X139.329 Y115.086 E0.13084
G1 X138.575 Y115.086 E0.02365
G1 X138.575 Y110.914 E0.13084
G1 X137.821 Y110.914 E0.02365
G1 X137.821 Y115.086 E0.13084
G1 X137.067 Y115.086 E0.02365
G1 X137.067 Y110.914 E0.13084
G1 X136.965 Y110.914 E0.00317
G1 X136.312 Y112.045 E0.04095
G1 X136.312 Y114.295 E0.07055
;WIPE_START
G1 F8640.000
G1 X136.312 Y112.045 E-0.51959
G1 X136.833 Y111.143 E-0.24041
;WIPE_END
G1 E-0.04000 F2100.000
G1 Z0.600 F10800.000
G1 X134.050 Y119.670
G1 Z0.200
G1 E0.80000 F2100.000
G1 F1200.000
G1 X134.050 Y106.649 E0.40826
G1 X133.296 Y106.649 E0.02365
G1 X133.296 Y119.500 E0.40294
G1 X132.542 Y119.500 E0.02365
G1 X132.542 Y106.649 E0.40294
G1 X131.787 Y106.649 E0.02365
G1 X131.787 Y119.670 E0.40826
;WIPE_START
G1 F8640.000
G1 X131.787 Y116.379 E-0.76000
;WIPE_END
G1 E-0.04000 F2100.000
G1 Z0.600 F10800.000
G1 X141.591 Y145.414
G1 Z0.200
G1 E0.80000 F2100.000
G1 F1200.000
G1 X141.591 Y146.756 E0.04208
;WIPE_START
G1 F8640.000
G1 X141.591 Y145.414 E-0.30988
;WIPE_END
G1 E-0.49012 F2100.000
G1 Z0.600 F10800.000
G1 X140.083 Y151.199
G1 Z0.200
G1 E0.80000 F2100.000
G1 F1200.000
G1 X140.083 Y149.141 E0.06452
G1 X139.375 Y147.914 E0.04443
G1 X139.329 Y147.914 E0.00143
G1 X139.329 Y152.086 E0.13084
G1 X139.185 Y152.086 E0.00453
G1 X139.185 Y150.799 E0.04035
G1 X138.575 Y150.799 E0.01912
G1 X138.575 Y147.914 E0.09049
G1 X137.821 Y147.914 E0.02365
G1 X137.821 Y150.799 E0.09049
G1 X137.067 Y150.799 E0.02365
G1 X137.067 Y147.914 E0.09049
G1 X136.965 Y147.914 E0.00317
G1 X136.312 Y149.045 E0.04095
G1 X136.312 Y150.969 E0.06034
G1 X136.663 Y151.003 F10800.000
;TYPE:Support material interface
;WIDTH:0.35
G1 F1200.000
G1 X136.663 Y151.632 E0.01606
G1 X136.945 Y152.121 E0.01442
G1 X137.170 Y152.121 E0.00574
G1 X137.170 Y151.142 E0.02502
G1 X137.677 Y151.142 E0.01295
G1 X137.677 Y152.121 E0.02502
G1 X138.184 Y152.121 E0.01295
G1 X138.184 Y151.142 E0.02502
G1 X138.691 Y151.142 E0.01295
G1 X138.691 Y152.260 E0.02855
;WIPE_START
G1 F8640.000
G1 X138.691 Y151.142 E-0.25818
G1 X138.184 Y151.142 E-0.11709
G1 X138.184 Y152.121 E-0.22627
G1 X137.677 Y152.121 E-0.11709
G1 X137.677 Y151.942 E-0.04138
;WIPE_END
G1 E-0.04000 F2100.000
G1 Z0.600 F10800.000
G1 X138.691 Y153.587
G1 Z0.200
G1 E0.80000 F2100.000
G1 F1200.000
G1 X138.691 Y153.379 E0.00532
G1 X138.184 Y153.379 E0.01295
G1 X138.184 Y153.449 E0.00179
G1 X137.677 Y153.449 E0.01295
G1 X137.677 Y153.342 E0.00273
G1 X137.170 Y153.223 E0.01330
G1 X137.170 Y153.449 E0.00575
G1 X136.663 Y153.449 E0.01295
G1 X136.663 Y153.017 E0.01103
G1 X136.391 Y152.872 E0.00785
G1 X136.156 Y152.705 E0.00739
G1 X136.156 Y153.449 E0.01900
G1 X135.649 Y153.449 E0.01295
G1 X135.649 Y152.299 E0.02935
G1 X135.142 Y151.881 E0.01679
G1 X135.142 Y153.449 E0.04004
G1 X134.634 Y153.449 E0.01295
G1 X134.634 Y151.282 E0.05531
G1 X131.787 Y148.935 F10800.000
;TYPE:Support material
;WIDTH:0.42
G1 F1200.000
G1 X131.787 Y156.414 E0.23448
G1 X132.542 Y156.414 E0.02365
G1 X132.542 Y149.778 E0.20805
G1 X133.296 Y150.401 E0.03067
G1 X133.296 Y156.414 E0.18851
G1 X134.050 Y156.414 E0.02365
G1 X134.050 Y153.791 E0.08224
G1 X134.804 Y153.791 E0.02365
G1 X134.804 Y156.414 E0.08224
G1 X135.558 Y156.414 E0.02365
G1 X135.558 Y153.791 E0.08224
G1 X136.312 Y153.791 E0.02365
G1 X136.312 Y156.414 E0.08224
G1 X137.067 Y156.414 E0.02365
G1 X137.067 Y153.791 E0.08224
G1 X137.821 Y153.791 E0.02365
G1 X137.821 Y156.414 E0.08224
G1 X138.575 Y156.414 E0.02365
