; generated by PrusaSlicer 2.3.0+win64 on 2021-03-13 at 06:04:57 UTC

; 

; external perimeters extrusion width = 0.45mm
; perimeters extrusion width = 0.45mm
; infill extrusion width = 0.45mm
; solid infill extrusion width = 0.45mm
; top infill extrusion width = 0.40mm
; support material extrusion width = 0.35mm
; first layer extrusion width = 0.42mm

M73 P0 R39
M73 Q0 S39
M201 X1000 Y1000 Z200 E5000 ; sets maximum accelerations, mm/sec^2
M203 X200 Y200 Z12 E120 ; sets maximum feedrates, mm/sec
M204 P1250 R1250 T1250 ; sets acceleration (P, T) and retract acceleration (R), mm/sec^2
M205 X8.00 Y8.00 Z0.40 E4.50 ; sets the jerk limits, mm/sec
M205 S0 T0 ; sets the minimum extruding and travel feed rate, mm/sec
M107
;TYPE:Custom
M862.3 P "MK3SMMU2S" ; printer model check
M862.1 P0.4 ; nozzle diameter check
M115 U3.9.3 ; tell printer latest fw version
G90 ; use absolute coordinates
M83 ; extruder relative mode
M104 S215 ; set extruder temp
M140 S60 ; set bed temp
Tx
M190 S60 ; wait for bed temp
M109 S215 ; wait for extruder temp
G28 W ; home all without mesh bed level
G80 ; mesh bed leveling

;go outside print area
G1 Y-3.0 F1000.0
G1 Z0.4 F1000.0
; select extruder
Tc
; purge line
G1 X55.0 F2000.0
G1 Z0.3 F1000.0
G92 E0.0
G1 X240.0 E25.0 F2200.0
G1 Y-2.0 F1000.0
G1 X55.0 E25 F1400.0
G1 Z0.20 F1000.0
G1 X5.0 E4.0 F1000.0

M221 S95
G92 E0.0

; Don't change E values below. Excessive value can damage the printer.

M907 E538 ; set extruder motor current
G21 ; set units to millimeters
G90 ; use absolute coordinates
M83 ; use relative distances for extrusion
M900 K0.05 ; Filament gcode LA 1.5
M900 K30 ; Filament gcode LA 1.0
;LAYER_CHANGE
;Z:0.2
;HEIGHT:0.2
;BEFORE_LAYER_CHANGE
G92 E0.0
;0.2


G1 E-0.80000 F2100.000
G1 Z0.400 F10800.000
;AFTER_LAYER_CHANGE
;0.2
G1 X115.036 Y97.862
G1 Z0.200
G1 E0.80000 F2100.000
M204 S1000
;TYPE:Skirt
;WIDTH:0.42
G1 F1200.000
G1 X116.414 Y96.254 E0.06640
G1 X117.284 Y95.478 E0.03655
G1 X118.187 Y94.813 E0.03516
G1 X119.280 Y94.162 E0.03991
G1 X120.263 Y93.697 E0.03409
G1 X121.549 Y93.241 E0.04276
G1 X122.527 Y92.997 E0.03162
G1 X123.892 Y92.796 E0.04325
G1 X124.924 Y92.746 E0.03239
G1 X126.277 Y92.813 E0.04247
G1 X127.275 Y92.960 E0.03162
G1 X128.609 Y93.291 E0.04312
G1 X129.568 Y93.631 E0.03188
G1 X130.809 Y94.213 E0.04299
G1 X131.684 Y94.731 E0.03188
G1 X132.795 Y95.548 E0.04325
G1 X133.577 Y96.252 E0.03299
G1 X134.478 Y97.238 E0.04188
G1 X135.089 Y98.050 E0.03188
G1 X135.804 Y99.225 E0.04312
G1 X136.268 Y100.194 E0.03366
G1 X136.732 Y101.471 E0.04262
G1 X137.054 Y102.813 E0.04324
G1 X137.196 Y103.848 E0.03278
G1 X137.249 Y105.185 E0.04196
G1 X137.188 Y106.237 E0.03303
G1 X136.972 Y107.599 E0.04324
G1 X136.715 Y108.584 E0.03190
G1 X136.243 Y109.865 E0.04282
G1 X135.801 Y110.780 E0.03186
G1 X135.085 Y111.956 E0.04316
G1 X134.477 Y112.764 E0.03170
G1 X133.550 Y113.776 E0.04304
G1 X132.795 Y114.452 E0.03175
G1 X131.684 Y115.269 E0.04325
G1 X130.815 Y115.784 E0.03169
G1 X129.568 Y116.370 E0.04319
G1 X128.616 Y116.707 E0.03168
G1 X127.279 Y117.040 E0.04319
G1 X126.280 Y117.186 E0.03167
G1 X124.924 Y117.254 E0.04256
G1 X123.895 Y117.204 E0.03230
G1 X122.531 Y117.004 E0.04321
G1 X121.215 Y116.655 E0.04270
G1 X120.241 Y116.294 E0.03258
G1 X119.068 Y115.724 E0.04088
G1 X118.133 Y115.152 E0.03436
G1 X117.076 Y114.350 E0.04162
G1 X116.225 Y113.556 E0.03649
G1 X115.363 Y112.573 E0.04099
G1 X114.594 Y111.475 E0.04201
G1 X114.063 Y110.532 E0.03395
G1 X113.520 Y109.295 E0.04235
G1 X113.195 Y108.297 E0.03291
G1 X112.899 Y106.954 E0.04312
G1 X112.780 Y105.948 E0.03175
G1 X112.751 Y104.601 E0.04226
G1 X112.835 Y103.498 E0.03470
G1 X113.080 Y102.144 E0.04312
G1 X113.360 Y101.161 E0.03204
G1 X113.847 Y99.916 E0.04193
G1 X114.321 Y98.984 E0.03278
G1 X115.004 Y97.913 E0.03985
G1 X115.322 Y98.115 F10800.000
G1 F1200.000
G1 X116.678 Y96.524 E0.06554
M73 Q1 S39
G1 X117.523 Y95.770 E0.03554
G1 X118.393 Y95.128 E0.03387
G1 X119.456 Y94.495 E0.03880
M73 P1 R39
G1 X120.405 Y94.046 E0.03293
G1 X121.656 Y93.603 E0.04162
G1 X122.603 Y93.367 E0.03058
G1 X123.931 Y93.171 E0.04210
G1 X124.921 Y93.123 E0.03106
G1 X126.243 Y93.189 E0.04150
G1 X127.204 Y93.330 E0.03046
G1 X128.504 Y93.653 E0.04198
G1 X129.423 Y93.979 E0.03058
G1 X130.635 Y94.547 E0.04198
G1 X131.471 Y95.043 E0.03046
G1 X132.553 Y95.838 E0.04210
G1 X133.283 Y96.491 E0.03070
G1 X134.185 Y97.475 E0.04186
G1 X134.772 Y98.254 E0.03058
G1 X135.469 Y99.397 E0.04198
G1 X135.895 Y100.279 E0.03070
G1 X136.356 Y101.532 E0.04187
G1 X136.603 Y102.480 E0.03070
G1 X136.813 Y103.802 E0.04198
G1 X136.872 Y104.815 E0.03181
G1 X136.821 Y106.114 E0.04075
G1 X136.690 Y107.084 E0.03070
G1 X136.380 Y108.387 E0.04198
G1 X136.051 Y109.342 E0.03169
G1 X135.495 Y110.554 E0.04181
G1 X134.809 Y111.692 E0.04165
G1 X134.196 Y112.512 E0.03211
G1 X133.313 Y113.479 E0.04103
G1 X132.563 Y114.155 E0.03166
G1 X131.482 Y114.950 E0.04210
G1 X130.643 Y115.449 E0.03059
G1 X129.431 Y116.018 E0.04198
G1 X128.510 Y116.345 E0.03066
G1 X127.209 Y116.669 E0.04203
G1 X126.248 Y116.811 E0.03046
G1 X124.922 Y116.877 E0.04163
G1 X123.934 Y116.829 E0.03100
G1 X122.608 Y116.634 E0.04204
G1 X121.326 Y116.295 E0.04156
G1 X120.381 Y115.944 E0.03162
G1 X119.247 Y115.392 E0.03951
G1 X118.345 Y114.839 E0.03320
G1 X117.317 Y114.060 E0.04042
G1 X116.496 Y113.294 E0.03524
G1 X115.659 Y112.340 E0.03979
G1 X114.912 Y111.273 E0.04080
G1 X114.400 Y110.364 E0.03274
G1 X113.870 Y109.155 E0.04139
G1 X113.560 Y108.202 E0.03142
G1 X113.271 Y106.891 E0.04210
G1 X113.156 Y105.922 E0.03059
G1 X113.128 Y104.601 E0.04142
G1 X113.209 Y103.546 E0.03319
G1 X113.448 Y102.228 E0.04198
G1 X113.724 Y101.262 E0.03149
G1 X114.193 Y100.068 E0.04024
G1 X114.649 Y99.171 E0.03153
G1 X115.289 Y98.166 E0.03738
; printing object NEMA17toACMETr8.stl id:0 copy 0
;WIPE_START
G1 F8640.000
G1 X116.678 Y96.524 E-0.49640
G1 X117.523 Y95.770 E-0.26169
G1 X117.530 Y95.765 E-0.00191
;WIPE_END
G1 E-0.04000 F2100.000
G1 Z0.600 F10800.000
G1 X116.395 Y103.617
G1 Z0.200
G1 E0.80000 F2100.000
;TYPE:Perimeter
G1 F1200.000
G1 X116.528 Y102.954 E0.02120
G1 X116.713 Y102.300 E0.02133
G1 X116.950 Y101.659 E0.02144
G1 X117.082 Y101.358 E0.01029
G1 X117.396 Y100.742 E0.02168
G1 X117.562 Y100.458 E0.01029
G1 X117.939 Y99.891 E0.02137
G1 X118.370 Y99.344 E0.02181
G1 X118.820 Y98.856 E0.02083
G1 X119.054 Y98.629 E0.01024
G1 X119.582 Y98.174 E0.02184
G1 X120.135 Y97.770 E0.02148
G1 X120.423 Y97.585 E0.01071
G1 X120.994 Y97.262 E0.02059
G1 X121.621 Y96.968 E0.02170
G1 X122.261 Y96.728 E0.02141
G1 X122.574 Y96.631 E0.01029
G1 X123.245 Y96.465 E0.02165
G1 X123.568 Y96.405 E0.01032
G1 X124.247 Y96.320 E0.02145
G1 X124.926 Y96.288 E0.02132
G1 X125.610 Y96.309 E0.02145
G1 X126.274 Y96.382 E0.02096
G1 X126.947 Y96.509 E0.02145
G1 X127.603 Y96.687 E0.02132
G1 X128.247 Y96.917 E0.02145
G1 X128.549 Y97.045 E0.01029
G1 X129.164 Y97.349 E0.02150
G1 X129.752 Y97.699 E0.02145
G1 X130.023 Y97.884 E0.01029
G1 X130.567 Y98.301 E0.02150
G1 X131.076 Y98.759 E0.02145
G1 X131.306 Y98.992 E0.01029
G1 X131.759 Y99.507 E0.02150
G1 X132.170 Y100.054 E0.02145
G1 X132.351 Y100.328 E0.01029
G1 X132.695 Y100.921 E0.02150
G1 X132.992 Y101.537 E0.02145
G1 X133.116 Y101.841 E0.01029
G1 X133.340 Y102.489 E0.02150
G1 X133.511 Y103.152 E0.02145
G1 X133.575 Y103.474 E0.01029
G1 X133.669 Y104.158 E0.02165
G1 X133.694 Y104.485 E0.01029
G1 X133.707 Y105.170 E0.02147
G1 X133.668 Y105.849 E0.02132
G1 X133.575 Y106.527 E0.02145
G1 X133.433 Y107.179 E0.02094
G1 X133.235 Y107.835 E0.02147
G1 X132.987 Y108.473 E0.02148
G1 X132.851 Y108.772 E0.01029
G1 X132.530 Y109.376 E0.02145
G1 X132.163 Y109.955 E0.02150
G1 X131.971 Y110.222 E0.01029
G1 X131.540 Y110.753 E0.02145
G1 X131.067 Y111.250 E0.02150
G1 X130.828 Y111.474 E0.01029
G1 X130.302 Y111.911 E0.02145
G1 X129.742 Y112.307 E0.02150
G1 X129.463 Y112.481 E0.01029
G1 X128.863 Y112.808 E0.02145
G1 X128.237 Y113.088 E0.02150
G1 X127.930 Y113.204 E0.01029
G1 X127.277 Y113.409 E0.02145
G1 X126.609 Y113.562 E0.02150
G1 X126.285 Y113.617 E0.01029
G1 X125.605 Y113.691 E0.02145
G1 X124.919 Y113.712 E0.02150
G1 X124.591 Y113.703 E0.01029
G1 X123.910 Y113.645 E0.02145
G1 X123.239 Y113.533 E0.02132
G1 X122.574 Y113.369 E0.02147
G1 X122.261 Y113.272 E0.01029
G1 X121.620 Y113.032 E0.02146
G1 X120.987 Y112.735 E0.02191
G1 X120.698 Y112.579 E0.01030
G1 X120.144 Y112.236 E0.02042
G1 X119.587 Y111.829 E0.02164
G1 X119.054 Y111.371 E0.02204
G1 X118.592 Y110.907 E0.02052
G1 X118.373 Y110.661 E0.01033
G1 X117.938 Y110.107 E0.02210
G1 X117.565 Y109.547 E0.02108
G1 X117.396 Y109.259 E0.01048
G1 X117.082 Y108.642 E0.02168
G1 X116.950 Y108.342 E0.01029
G1 X116.713 Y107.700 E0.02144
G1 X116.528 Y107.046 E0.02133
G1 X116.395 Y106.383 E0.02120
G1 X116.373 Y106.187 E0.00617
G1 X120.364 Y106.187 E0.12513
G1 X120.469 Y106.556 E0.01203
G1 X120.604 Y106.902 E0.01164
G1 X120.797 Y107.298 E0.01381
G1 X120.996 Y107.630 E0.01214
G1 X121.235 Y107.961 E0.01281
G1 X121.505 Y108.276 E0.01300
G1 X121.870 Y108.631 E0.01596
G1 X122.360 Y108.843 E0.01672
G1 X122.929 Y109.013 E0.01863
G1 X123.400 Y109.093 E0.01499
G1 X123.995 Y109.118 E0.01865
G1 X124.451 Y109.078 E0.01438
G1 X124.795 Y109.012 E0.01095
G1 X125.207 Y108.890 E0.01350
G1 X125.539 Y108.746 E0.01133
G1 X126.147 Y108.610 E0.01953
G1 X126.747 Y108.360 E0.02039
G1 X127.186 Y108.091 E0.01614
G1 X127.609 Y107.744 E0.01717
G1 X127.954 Y107.368 E0.01601
G1 X128.246 Y106.948 E0.01602
G1 X128.495 Y106.450 E0.01745
G1 X128.642 Y106.028 E0.01401
G1 X128.707 Y105.764 E0.00852
G1 X128.775 Y105.273 E0.01555
G1 X128.778 Y104.769 E0.01581
G1 X128.714 Y104.271 E0.01575
G1 X128.586 Y103.788 E0.01566
G1 X128.395 Y103.326 E0.01568
G1 X128.082 Y102.803 E0.01910
G1 X127.864 Y102.526 E0.01104
G1 X127.634 Y102.287 E0.01042
G1 X127.342 Y101.819 E0.01728
G1 X127.003 Y101.428 E0.01625
G1 X126.614 Y101.085 E0.01623
G1 X126.187 Y100.795 E0.01618
G1 X125.733 Y100.562 E0.01602
G1 X125.424 Y100.439 E0.01042
G1 X125.052 Y100.324 E0.01222
G1 X124.595 Y100.223 E0.01469
G1 X123.936 Y100.331 E0.02093
G1 X123.577 Y100.428 E0.01165
G1 X123.206 Y100.560 E0.01236
G1 X122.561 Y100.878 E0.02254
G1 X122.083 Y101.201 E0.01808
G1 X121.833 Y101.407 E0.01016
G1 X121.485 Y101.746 E0.01524
G1 X121.272 Y101.992 E0.01020
G1 X120.961 Y102.423 E0.01668
G1 X120.682 Y102.925 E0.01799
G1 X120.566 Y103.186 E0.00897
G1 X120.392 Y103.687 E0.01660
G1 X120.365 Y103.813 E0.00405
G1 X116.373 Y103.813 E0.12517
G1 X116.388 Y103.677 E0.00429
G1 X115.952 Y104.190 F10800.000
;TYPE:External perimeter
G1 F1200.000
G1 X116.022 Y103.560 E0.01989
G1 X116.161 Y102.866 E0.02218
G1 X116.354 Y102.183 E0.02225
G1 X116.600 Y101.517 E0.02225
G1 X116.741 Y101.197 E0.01098
G1 X117.065 Y100.561 E0.02238
G1 X117.242 Y100.258 E0.01098
G1 X117.634 Y99.670 E0.02218
G1 X118.082 Y99.100 E0.02274
G1 X118.550 Y98.592 E0.02163
G1 X118.800 Y98.350 E0.01092
G1 X119.348 Y97.879 E0.02266
G1 X119.922 Y97.459 E0.02230
G1 X120.228 Y97.262 E0.01140
G1 X120.821 Y96.926 E0.02138
M73 P1 R38
G1 X121.475 Y96.620 E0.02262
G1 X122.138 Y96.371 E0.02222
G1 X122.473 Y96.268 E0.01098
G1 X123.165 Y96.097 E0.02235
G1 X123.510 Y96.033 E0.01101
G1 X124.214 Y95.944 E0.02225
G1 X124.923 Y95.911 E0.02225
G1 X125.632 Y95.933 E0.02225
G1 X125.983 Y95.964 E0.01105
G1 X126.334 Y96.009 E0.01107
G1 X127.031 Y96.141 E0.02225
G1 X127.716 Y96.327 E0.02224
G1 X128.384 Y96.565 E0.02226
G1 X128.707 Y96.702 E0.01098
G1 X129.344 Y97.018 E0.02231
G1 X129.954 Y97.381 E0.02226
G1 X130.244 Y97.578 E0.01098
G1 X130.808 Y98.011 E0.02231
G1 X131.336 Y98.486 E0.02226
G1 X131.582 Y98.735 E0.01098
G1 X132.052 Y99.269 E0.02231
G1 X132.478 Y99.837 E0.02226
G1 X132.671 Y100.129 E0.01098
G1 X133.029 Y100.744 E0.02231
G1 X133.336 Y101.384 E0.02226
G1 X133.469 Y101.708 E0.01098
G1 X133.701 Y102.381 E0.02230
G1 X133.879 Y103.068 E0.02226
G1 X133.947 Y103.412 E0.01098
G1 X134.044 Y104.118 E0.02235
G1 X134.071 Y104.467 E0.01098
G1 X134.085 Y105.177 E0.02228
G1 X134.043 Y105.885 E0.02224
G1 X133.947 Y106.589 E0.02226
G1 X133.878 Y106.934 E0.01105
G1 X133.797 Y107.277 E0.01105
G1 X133.592 Y107.958 E0.02228
G1 X133.335 Y108.620 E0.02228
G1 X133.189 Y108.939 E0.01098
G1 X132.857 Y109.566 E0.02226
G1 X132.476 Y110.167 E0.02231
G1 X132.271 Y110.451 E0.01098
G1 X131.823 Y111.002 E0.02226
G1 X131.333 Y111.517 E0.02231
G1 X131.077 Y111.757 E0.01098
G1 X130.531 Y112.211 E0.02226
G1 X129.951 Y112.621 E0.02231
G1 X129.653 Y112.807 E0.01098
G1 X129.030 Y113.146 E0.02226
G1 X128.381 Y113.437 E0.02231
G1 X128.053 Y113.561 E0.01098
G1 X127.376 Y113.773 E0.02225
G1 X126.682 Y113.932 E0.02231
G1 X126.337 Y113.991 E0.01098
G1 X125.631 Y114.068 E0.02225
G1 X124.920 Y114.090 E0.02231
G1 X124.570 Y114.080 E0.01098
G1 X123.863 Y114.019 E0.02225
G1 X123.163 Y113.903 E0.02225
G1 X122.473 Y113.733 E0.02228
G1 X122.138 Y113.629 E0.01098
G1 X121.473 Y113.379 E0.02227
G1 X120.817 Y113.072 E0.02273
G1 X120.509 Y112.905 E0.01098
G1 X119.934 Y112.549 E0.02121
G1 X119.352 Y112.125 E0.02257
G1 X118.797 Y111.647 E0.02298
G1 X118.317 Y111.165 E0.02131
G1 X118.084 Y110.902 E0.01102
G1 X117.632 Y110.328 E0.02292
G1 X117.245 Y109.747 E0.02189
G1 X117.065 Y109.440 E0.01117
G1 X116.741 Y108.804 E0.02238
G1 X116.600 Y108.483 E0.01098
G1 X116.354 Y107.817 E0.02225
G1 X116.161 Y107.134 E0.02225
G1 X116.022 Y106.441 E0.02218
G1 X115.952 Y105.810 E0.01989
G1 X120.665 Y105.810 E0.14778
M73 Q1 S38
G1 X120.827 Y106.436 E0.02026
G1 X120.950 Y106.751 E0.01060
G1 X121.128 Y107.118 E0.01281
G1 X121.311 Y107.422 E0.01113
G1 X121.532 Y107.728 E0.01182
G1 X121.780 Y108.017 E0.01196
G1 X122.083 Y108.312 E0.01326
G1 X122.489 Y108.488 E0.01386
G1 X123.015 Y108.645 E0.01720
G1 X123.440 Y108.717 E0.01352
G1 X123.986 Y108.740 E0.01714
G1 X124.399 Y108.704 E0.01301
G1 X124.706 Y108.645 E0.00978
G1 X125.078 Y108.535 E0.01218
G1 X125.433 Y108.380 E0.01215
G1 X125.638 Y108.350 E0.00649
G1 X126.027 Y108.251 E0.01258
G1 X126.575 Y108.023 E0.01861
G1 X126.967 Y107.783 E0.01441
G1 X127.349 Y107.469 E0.01552
G1 X127.659 Y107.131 E0.01438
G1 X127.921 Y106.755 E0.01437
G1 X128.147 Y106.303 E0.01584
G1 X128.280 Y105.922 E0.01268
G1 X128.336 Y105.694 E0.00736
G1 X128.398 Y105.246 E0.01416
G1 X128.401 Y104.792 E0.01423
G1 X128.343 Y104.344 E0.01418
G1 X128.228 Y103.909 E0.01410
G1 X128.057 Y103.495 E0.01403
G1 X127.771 Y103.017 E0.01746
G1 X127.580 Y102.775 E0.00969
G1 X127.335 Y102.520 E0.01109
G1 X127.038 Y102.044 E0.01758
G1 X126.734 Y101.694 E0.01452
G1 X126.383 Y101.384 E0.01470
G1 X125.994 Y101.120 E0.01472
G1 X125.577 Y100.905 E0.01473
G1 X125.299 Y100.795 E0.00938
G1 X124.956 Y100.689 E0.01126
G1 X124.584 Y100.607 E0.01192
G1 X124.016 Y100.700 E0.01806
G1 X123.689 Y100.788 E0.01060
G1 X123.353 Y100.908 E0.01120
G1 X122.751 Y101.204 E0.02103
G1 X122.310 Y101.503 E0.01671
G1 X122.085 Y101.688 E0.00912
G1 X121.760 Y102.005 E0.01425
G1 X121.568 Y102.226 E0.00917
G1 X121.280 Y102.626 E0.01545
G1 X121.020 Y103.094 E0.01677
G1 X120.917 Y103.325 E0.00795
G1 X120.756 Y103.788 E0.01536
G1 X120.671 Y104.190 E0.01289
G1 X116.012 Y104.190 E0.14606
G1 X116.168 Y103.853 F10800.000
;WIPE_START
G1 F8640.000
G1 X116.022 Y103.560 E-0.14563
G1 X116.161 Y102.866 E-0.16337
G1 X116.354 Y102.183 E-0.16385
G1 X116.600 Y101.517 E-0.16386
G1 X116.741 Y101.197 E-0.08088
G1 X116.824 Y101.033 E-0.04241
;WIPE_END
G1 E-0.04000 F2100.000
G1 Z0.600 F10800.000
G1 X129.743 Y97.830
G1 Z0.200
G1 E0.80000 F2100.000
;TYPE:Solid infill
;WIDTH:0.425817
G1 F1200.000
G1 X131.112 Y99.199 E0.06160
G1 X131.540 Y99.685 E0.02064
G1 X132.110 Y100.477 E0.03108
G1 X132.464 Y101.092 E0.02259
G1 X128.910 Y97.539 E0.16000
G1 X128.431 Y97.302 E0.01702
G1 X127.935 Y97.106 E0.01698
G1 X132.894 Y102.064 E0.22327
G1 X133.069 Y102.571 E0.01706
G1 X133.142 Y102.853 E0.00928
G1 X127.144 Y96.855 E0.27007
G1 X126.883 Y96.785 E0.00859
G1 X126.449 Y96.703 E0.01406
G1 X133.300 Y103.553 E0.30845
G1 X133.386 Y104.181 E0.02017
G1 X125.822 Y96.617 E0.34058
G1 X125.245 Y96.581 E0.01842
G1 X133.416 Y104.753 E0.36794
G1 X133.417 Y105.294 E0.01725
G1 X124.704 Y96.582 E0.39230
G1 X124.193 Y96.612 E0.01630
G1 X133.387 Y105.806 E0.41397
G1 X133.323 Y106.283 E0.01533
G1 X123.712 Y96.672 E0.43273
